; generated by PrusaSlicer 2.3.1+win64 on 2022-02-02 at 18:14:48 UTC

; 

; external perimeters extrusion width = 0.60mm
; perimeters extrusion width = 0.50mm
; infill extrusion width = 0.50mm
; solid infill extrusion width = 0.50mm
; top infill extrusion width = 0.45mm
; first layer extrusion width = 0.42mm

M73 P0 R16
M73 Q0 S16
M201 X1000 Y1000 Z200 E5000 ; sets maximum accelerations, mm/sec^2
M203 X200 Y200 Z12 E120 ; sets maximum feedrates, mm/sec
M204 P1250 R1250 T1250 ; sets acceleration (P, T) and retract acceleration (R), mm/sec^2
M205 X8.00 Y8.00 Z0.40 E4.50 ; sets the jerk limits, mm/sec
M205 S0 T0 ; sets the minimum extruding and travel feed rate, mm/sec
M107
;TYPE:Custom
M862.3 P "MK3S" ; printer model check
M862.1 P0.4 ; nozzle diameter check
M115 U3.9.3 ; tell printer latest fw version
G90 ; use absolute coordinates
M83 ; extruder relative mode
M104 S215 ; set extruder temp
M140 S60 ; set bed temp
M190 S60 ; wait for bed temp
M109 S215 ; wait for extruder temp
G28 W ; home all without mesh bed level
G80 ; mesh bed leveling
G1 Y-3.0 F1000.0 ; go outside print area
G92 E0.0
G1 X60.0 E9.0 F1000.0 ; intro line
G1 X100.0 E12.5 F1000.0 ; intro line
G92 E0.0
M221 S95

; Don't change E values below. Excessive value can damage the printer.

M907 E538 ; set extruder motor current
G21 ; set units to millimeters
G90 ; use absolute coordinates
M83 ; use relative distances for extrusion
M900 K0.05 ; Filament gcode LA 1.5
M900 K30 ; Filament gcode LA 1.0
;LAYER_CHANGE
;Z:0.2
;HEIGHT:0.2
;BEFORE_LAYER_CHANGE
G92 E0.0
;0.2


G1 E-0.80000 F2100.000
G1 Z0.400 F10800.000
;AFTER_LAYER_CHANGE
;0.2
; printing object alarm_support.stl id:1 copy 0
G1 X104.756 Y82.033
G1 Z0.200
G1 E0.80000 F2100.000
M204 S1000
;TYPE:Perimeter
;WIDTH:0.42
G1 F1200.000
G1 X105.185 Y81.485 E0.02181
G1 X105.526 Y81.165 E0.01467
G1 X106.129 Y80.765 E0.02269
G1 X106.832 Y80.490 E0.02366
G1 X107.577 Y80.370 E0.02366
G1 X108.330 Y80.410 E0.02366
G1 X109.023 Y80.599 E0.02253
G1 X109.432 Y80.785 E0.01408
G1 X110.031 Y81.182 E0.02253
G1 X110.557 Y81.723 E0.02366
G1 X110.957 Y82.362 E0.02366
G1 X111.201 Y83.038 E0.02253
G1 X111.284 Y83.479 E0.01408
G1 X111.304 Y84.197 E0.02253
G1 X111.164 Y84.939 E0.02366
G1 X110.870 Y85.634 E0.02366
G1 X110.437 Y86.251 E0.02366
G1 X109.883 Y86.762 E0.02361
G1 X109.285 Y87.117 E0.02181
G1 X108.850 Y87.290 E0.01467
G1 X108.143 Y87.443 E0.02269
G1 X107.388 Y87.443 E0.02366
G1 X106.651 Y87.284 E0.02366
G1 X105.964 Y86.972 E0.02366
G1 X105.387 Y86.544 E0.02253
G1 X105.074 Y86.222 E0.01408
G1 X104.661 Y85.634 E0.02253
G1 X104.368 Y84.939 E0.02366
G1 X104.228 Y84.197 E0.02366
G1 X104.248 Y83.443 E0.02366
G1 X104.427 Y82.710 E0.02366
G1 X104.730 Y82.087 E0.02173
G1 X105.069 Y82.252 F10800.000
G1 F1200.000
G1 X105.464 Y81.740 E0.02026
G1 X105.761 Y81.462 E0.01277
G1 X106.304 Y81.101 E0.02043
G1 X106.932 Y80.856 E0.02113
G1 X107.597 Y80.749 E0.02113
G1 X108.270 Y80.785 E0.02113
G1 X108.895 Y80.955 E0.02032
G1 X109.249 Y81.116 E0.01218
G1 X109.789 Y81.474 E0.02032
G1 X110.259 Y81.957 E0.02113
G1 X110.616 Y82.528 E0.02113
G1 X110.836 Y83.138 E0.02032
G1 X110.908 Y83.519 E0.01218
G1 X110.925 Y84.167 E0.02032
G1 X110.801 Y84.829 E0.02113
G1 X110.539 Y85.450 E0.02113
G1 X110.151 Y86.002 E0.02113
G1 X109.657 Y86.458 E0.02110
G1 X109.118 Y86.777 E0.01965
G1 X108.740 Y86.929 E0.01277
G1 X108.103 Y87.066 E0.02043
G1 X107.429 Y87.066 E0.02113
G1 X106.770 Y86.924 E0.02113
G1 X106.156 Y86.645 E0.02113
G1 X105.636 Y86.259 E0.02032
G1 X105.365 Y85.981 E0.01218
G1 X104.993 Y85.450 E0.02032
G1 X104.731 Y84.829 E0.02113
G1 X104.606 Y84.167 E0.02113
G1 X104.624 Y83.494 E0.02113
G1 X104.784 Y82.839 E0.02113
G1 X105.043 Y82.306 E0.01859
G1 X105.382 Y82.471 F10800.000
G1 F1200.000
G1 X105.743 Y81.995 E0.01872
G1 X105.996 Y81.758 E0.01086
G1 X106.479 Y81.438 E0.01818
M73 Q1 S16
G1 X107.031 Y81.222 E0.01860
G1 X107.617 Y81.128 E0.01860
G1 X108.210 Y81.159 E0.01860
G1 X108.767 Y81.311 E0.01811
G1 X109.066 Y81.447 E0.01029
G1 X109.547 Y81.766 E0.01811
G1 X109.961 Y82.191 E0.01860
G1 X110.275 Y82.694 E0.01860
G1 X110.471 Y83.237 E0.01811
G1 X110.532 Y83.560 E0.01029
M73 P1 R16
G1 X110.547 Y84.137 E0.01811
G1 X110.438 Y84.720 E0.01860
G1 X110.207 Y85.267 E0.01860
G1 X109.866 Y85.752 E0.01860
G1 X109.430 Y86.154 E0.01858
G1 X108.951 Y86.438 E0.01748
G1 X108.629 Y86.567 E0.01086
G1 X108.062 Y86.689 E0.01818
G1 X107.469 Y86.689 E0.01860
G1 X106.889 Y86.564 E0.01860
G1 X106.349 Y86.319 E0.01860
G1 X105.885 Y85.974 E0.01811
G1 X105.656 Y85.739 E0.01029
G1 X105.324 Y85.267 E0.01811
G1 X105.094 Y84.720 E0.01860
G1 X104.984 Y84.137 E0.01860
G1 X105.000 Y83.544 E0.01860
G1 X105.140 Y82.968 E0.01860
G1 X105.356 Y82.525 E0.01544
G1 X105.721 Y82.635 F10800.000
;TYPE:External perimeter
G1 F1200.000
G1 X106.022 Y82.251 E0.01532
G1 X106.231 Y82.055 E0.00896
G1 X106.654 Y81.774 E0.01592
G1 X107.131 Y81.588 E0.01607
G1 X107.637 Y81.506 E0.01607
G1 X108.149 Y81.534 E0.01607
G1 X108.638 Y81.667 E0.01590
G1 X108.882 Y81.778 E0.00840
G1 X109.305 Y82.058 E0.01590
G1 X109.662 Y82.425 E0.01607
G1 X109.934 Y82.860 E0.01607
G1 X110.106 Y83.337 E0.01590
G1 X110.156 Y83.600 E0.00840
G1 X110.169 Y84.107 E0.01590
G1 X110.074 Y84.610 E0.01607
G1 X109.875 Y85.083 E0.01607
G1 X109.580 Y85.502 E0.01607
G1 X109.204 Y85.850 E0.01607
G1 X108.784 Y86.099 E0.01532
G1 X108.518 Y86.205 E0.00896
G1 X108.022 Y86.312 E0.01592
G1 X107.509 Y86.312 E0.01607
G1 X107.008 Y86.204 E0.01607
G1 X106.541 Y85.992 E0.01607
G1 X106.134 Y85.690 E0.01590
G1 X105.948 Y85.498 E0.00840
G1 X105.656 Y85.083 E0.01590
G1 X105.457 Y84.610 E0.01607
G1 X105.362 Y84.107 E0.01607
G1 X105.376 Y83.594 E0.01607
G1 X105.497 Y83.096 E0.01607
G1 X105.695 Y82.689 E0.01419
G1 X105.533 Y82.282 F10800.000
;WIPE_START
G1 F8640.000
G1 X106.022 Y82.251 E-0.12637
G1 X106.231 Y82.055 E-0.06597
G1 X106.654 Y81.774 E-0.11725
G1 X107.131 Y81.588 E-0.11837
G1 X107.637 Y81.506 E-0.11837
G1 X108.149 Y81.534 E-0.11838
G1 X108.547 Y81.642 E-0.09528
;WIPE_END
G1 E-0.04000 F2100.000
G1 Z0.600 F10800.000
G1 X102.738 Y84.435
G1 Z0.200
G1 E0.80000 F2100.000
;TYPE:Perimeter
G1 F1200.000
G1 X102.915 Y85.377 E0.03006
G1 X103.044 Y85.681 E0.01037
G1 X101.966 Y85.585 E0.03393
G1 X102.406 Y84.954 E0.02412
G1 X102.705 Y84.485 E0.01744
;WIPE_START
G1 F8640.000
G1 X102.915 Y85.377 E-0.21149
G1 X103.044 Y85.681 E-0.07634
G1 X101.966 Y85.585 E-0.24986
G1 X102.406 Y84.954 E-0.17766
G1 X102.510 Y84.791 E-0.04466
;WIPE_END
G1 E-0.04000 F2100.000
G1 Z0.600 F10800.000
G1 X103.191 Y83.002
G1 Z0.200
G1 E0.80000 F2100.000
G1 F1200.000
G1 X103.120 Y83.292 E0.00936
G1 X103.094 Y84.288 E0.03124
G1 X103.278 Y85.267 E0.03124
G1 X103.635 Y86.113 E0.02877
G1 X101.262 Y85.901 E0.07470
G1 X101.559 Y85.510 E0.01539
G1 X102.092 Y84.745 E0.02925
G1 X103.161 Y83.054 E0.06270
;WIPE_START
G1 F8640.000
G1 X103.120 Y83.292 E-0.05577
G1 X103.094 Y84.288 E-0.23006
G1 X103.278 Y85.267 E-0.23006
G1 X103.635 Y86.113 E-0.21189
G1 X103.496 Y86.100 E-0.03221
;WIPE_END
G1 E-0.04000 F2100.000
G1 Z0.600 F10800.000
G1 X104.117 Y80.480
G1 Z0.200
G1 E0.80000 F2100.000
G1 F1200.000
G1 X105.195 Y80.480 E0.03379
G1 X105.057 Y80.571 E0.00519
G1 X104.626 Y80.975 E0.01848
G1 X104.113 Y81.631 E0.02614
G1 X103.713 Y82.453 E0.02864
G1 X103.496 Y83.343 E0.02871
G1 X103.472 Y84.258 E0.02871
G1 X103.641 Y85.158 E0.02871
G1 X103.998 Y86.002 E0.02871
G1 X104.389 Y86.559 E0.02135
G1 X100.550 Y86.216 E0.12084
G1 X101.254 Y85.288 E0.03652
G1 X101.779 Y84.535 E0.02877
G1 X102.721 Y83.060 E0.05490
G1 X103.184 Y82.267 E0.02877
G1 X104.091 Y80.534 E0.06133
G1 X103.876 Y80.103 F10800.000
G1 F1200.000
G1 X106.865 Y80.103 E0.09372
G1 X106.732 Y80.124 E0.00423
G1 X105.954 Y80.428 E0.02618
G1 X105.291 Y80.868 E0.02494
G1 X104.906 Y81.230 E0.01658
G1 X104.435 Y81.832 E0.02398
G1 X104.070 Y82.582 E0.02613
G1 X103.872 Y83.393 E0.02618
G1 X103.850 Y84.228 E0.02618
G1 X104.005 Y85.048 E0.02618
G1 X104.329 Y85.818 E0.02618
G1 X104.783 Y86.463 E0.02474
G1 X105.138 Y86.828 E0.01597
G1 X105.407 Y87.028 E0.01051
G1 X99.833 Y86.530 E0.17547
G1 X100.949 Y85.066 E0.05773
G1 X101.465 Y84.326 E0.02830
G1 X102.399 Y82.863 E0.05442
G1 X102.854 Y82.084 E0.02830
G1 X103.672 Y80.541 E0.05475
G1 X103.851 Y80.157 E0.01327
;WIPE_START
G1 F8640.000
G1 X106.865 Y80.103 E-0.69611
G1 X106.732 Y80.124 E-0.03113
G1 X106.600 Y80.176 E-0.03276
;WIPE_END
G1 E-0.04000 F2100.000
G1 Z0.600 F10800.000
G1 X137.868 Y85.005
G1 Z0.200
G1 E0.80000 F2100.000
G1 F1200.000
G1 X145.945 Y85.005 E0.25327
G1 X145.945 Y85.726 E0.02261
G1 X137.927 Y85.010 E0.25240
;WIPE_START
G1 F8640.000
G1 X141.219 Y85.008 E-0.76000
;WIPE_END
G1 E-0.04000 F2100.000
G1 Z0.600 F10800.000
G1 X146.322 Y86.138
G1 Z0.200
G1 E0.80000 F2100.000
G1 F1200.000
G1 X129.404 Y84.628 E0.53257
G1 X146.322 Y84.628 E0.53046
M73 Q2 S16
G1 X146.322 Y86.078 E0.04548
G1 X146.699 Y86.551 F10800.000
G1 F1200.000
G1 X120.941 Y84.251 E0.81086
M73 P2 R16
G1 X146.699 Y84.251 E0.80765
G1 X146.699 Y86.491 E0.07023
G1 X147.077 Y86.963 F10800.000
G1 F1200.000
G1 X115.451 Y84.139 E0.99553
G1 X115.444 Y83.874 E0.00833
G1 X147.077 Y83.874 E0.99181
M73 P2 R15
G1 X147.077 Y86.903 E0.09498
G1 X147.454 Y87.375 F10800.000
G1 F1200.000
G1 X115.083 Y84.485 E1.01899
G1 X115.057 Y83.497 E0.03100
G1 X147.454 Y83.497 E1.01577
M73 Q3 S15
G1 X147.454 Y87.315 E0.11973
M73 P3 R15
G1 X147.831 Y87.787 F10800.000
G1 F1200.000
G1 X114.639 Y84.824 E1.04485
G1 X114.706 Y84.470 E0.01130
G1 X114.670 Y83.119 E0.04235
G1 X147.831 Y83.119 E1.03974
G1 X147.831 Y87.727 E0.14448
G1 X148.208 Y88.200 F10800.000
G1 F1200.000
G1 X114.191 Y85.162 E1.07080
G1 X114.328 Y84.440 E0.02307
G1 X114.294 Y83.158 E0.04021
G1 X114.215 Y82.742 E0.01325
G1 X148.208 Y82.742 E1.06581
G1 X148.208 Y88.140 E0.16923
G1 X148.585 Y88.612 F10800.000
G1 F1200.000
G1 X113.744 Y85.501 E1.09676
M73 Q4 S15
G1 X113.950 Y84.409 E0.03483
G1 X113.917 Y83.198 E0.03800
G1 X113.760 Y82.365 E0.02656
G1 X148.585 Y82.365 E1.09190
M73 P4 R15
G1 X148.585 Y88.552 E0.19397
G1 X148.962 Y89.024 F10800.000
G1 F1200.000
G1 X113.241 Y85.835 E1.12445
G1 X113.342 Y85.596 E0.00813
G1 X113.572 Y84.379 E0.03882
G1 X113.541 Y83.238 E0.03579
G1 X113.391 Y82.441 E0.02543
G1 X113.228 Y81.988 E0.01509
G1 X148.962 Y81.988 E1.12042
G1 X148.962 Y88.964 E0.21872
G1 X149.339 Y89.436 F10800.000
G1 F1200.000
G1 X112.693 Y86.164 E1.15358
G1 X112.979 Y85.486 E0.02308
G1 X113.194 Y84.349 E0.03630
G1 X113.165 Y83.278 E0.03358
G1 X113.026 Y82.540 E0.02354
G1 X112.691 Y81.611 E0.03097
G1 X149.339 Y81.611 E1.14908
M73 P5 R15
M73 Q5 S15
G1 X149.339 Y89.376 E0.24347
G1 X149.716 Y89.849 F10800.000
G1 F1200.000
G1 X112.112 Y86.491 E1.18375
G1 X112.197 Y86.369 E0.00467
G1 X112.616 Y85.377 E0.03377
G1 X112.816 Y84.318 E0.03377
G1 X112.789 Y83.318 E0.03137
G1 X112.661 Y82.640 E0.02165
G1 X112.322 Y81.699 E0.03137
G1 X112.031 Y81.234 E0.01719
G1 X149.716 Y81.234 E1.18159
G1 X149.716 Y89.789 E0.26822
G1 X150.093 Y90.261 F10800.000
G1 F1200.000
G1 X111.428 Y86.809 E1.21715
G1 X111.866 Y86.185 E0.02388
G1 X112.253 Y85.267 E0.03124
G1 X112.438 Y84.288 E0.03124
G1 X112.413 Y83.359 E0.02916
G1 X112.296 Y82.740 E0.01975
G1 X111.981 Y81.865 E0.02916
G1 X111.452 Y81.020 E0.03124
G1 X111.293 Y80.857 E0.00713
G1 X150.093 Y80.857 E1.21654
M73 P6 R15
M73 Q6 S15
G1 X150.093 Y90.201 E0.29297
G1 X150.470 Y90.673 F10800.000
G1 F1200.000
G1 X110.614 Y87.114 E1.25465
G1 X111.007 Y86.751 E0.01680
G1 X111.534 Y86.002 E0.02871
G1 X111.890 Y85.158 E0.02871
G1 X112.060 Y84.258 E0.02871
G1 X112.037 Y83.399 E0.02695
G1 X111.931 Y82.839 E0.01786
G1 X111.640 Y82.031 E0.02695
G1 X111.154 Y81.254 E0.02871
G1 X110.515 Y80.598 E0.02871
G1 X110.337 Y80.480 E0.00670
G1 X150.470 Y80.480 E1.25836
G1 X150.470 Y90.613 E0.31772
G1 X150.847 Y91.085 F10800.000
G1 F1200.000
G1 X109.550 Y87.398 E1.30001
G1 X110.110 Y87.066 E0.02041
G1 X110.722 Y86.501 E0.02613
G1 X111.202 Y85.818 E0.02618
G1 X111.527 Y85.048 E0.02618
G1 X111.682 Y84.228 E0.02618
G1 X111.661 Y83.439 E0.02474
G1 X111.566 Y82.939 E0.01597
G1 X111.299 Y82.196 E0.02474
G1 X110.856 Y81.488 E0.02618
G1 X110.273 Y80.890 E0.02618
G1 X109.615 Y80.454 E0.02474
G1 X109.152 Y80.243 E0.01597
G1 X108.636 Y80.103 E0.01676
G1 X150.847 Y80.103 E1.32351
M73 P7 R15
M73 Q7 S15
G1 X150.847 Y91.025 E0.34247
G1 X151.224 Y91.498 F10800.000
G1 F1200.000
G1 X99.087 Y86.842 E1.64124
G1 X99.604 Y86.215 E0.02549
G1 X100.644 Y84.844 E0.05394
G1 X101.151 Y84.116 E0.02782
G1 X102.077 Y82.667 E0.05394
G1 X102.524 Y81.900 E0.02782
G1 X103.335 Y80.373 E0.05420
G1 X103.636 Y79.726 E0.02238
G1 X151.224 Y79.726 E1.49211
G1 X151.224 Y91.438 E0.36722
G1 X151.601 Y91.910 F10800.000
G1 F1200.000
G1 X98.309 Y87.152 E1.67759
M73 P8 R15
M73 Q8 S15
G1 X98.754 Y86.654 E0.02092
G1 X99.308 Y85.981 E0.02733
G1 X100.339 Y84.623 E0.05347
G1 X100.838 Y83.907 E0.02734
G1 X101.755 Y82.470 E0.05347
G1 X102.195 Y81.717 E0.02734
G1 X102.997 Y80.205 E0.05365
G1 X103.395 Y79.349 E0.02961
G1 X151.601 Y79.349 E1.51147
G1 X151.601 Y91.850 E0.39196
G1 X151.979 Y92.322 F10800.000
G1 F1200.000
G1 X97.553 Y87.463 E1.71327
G1 X97.553 Y87.433 E0.00094
G1 X98.468 Y86.408 E0.04306
G1 X99.012 Y85.747 E0.02686
G1 X100.034 Y84.401 E0.05299
G1 X100.524 Y83.698 E0.02687
G1 X101.434 Y82.273 E0.05299
G1 X101.865 Y81.533 E0.02687
G1 X102.659 Y80.037 E0.05310
G1 X103.155 Y78.972 E0.03684
G1 X151.979 Y78.972 E1.53084
M73 P9 R14
M73 Q9 S15
G1 X151.979 Y92.262 E0.41671
G1 X152.356 Y92.734 F10800.000
;TYPE:External perimeter
G1 F1200.000
G1 X97.176 Y87.808 E1.73701
M73 Q9 S14
G1 X97.176 Y87.289 E0.01626
G1 X98.181 Y86.163 E0.04734
G1 X98.717 Y85.513 E0.02639
G1 X99.729 Y84.179 E0.05251
G1 X100.210 Y83.488 E0.02639
G1 X101.112 Y82.077 E0.05251
G1 X101.536 Y81.350 E0.02639
G1 X102.322 Y79.869 E0.05255
G1 X102.914 Y78.595 E0.04407
G1 X152.356 Y78.595 E1.55020
G1 X152.356 Y92.674 E0.44146
G1 X151.960 Y92.674 F10800.000
;WIPE_START
G1 F8640.000
G1 X149.077 Y92.385 E-0.76000
;WIPE_END
G1 E-0.04000 F2100.000
G1 Z0.600 F10800.000
G1 X145.757 Y85.356
G1 Z0.200
G1 E0.80000 F2100.000
;TYPE:Gap fill
;WIDTH:0.35494
G1 F1200.000
G1 X145.237 Y85.333 E0.01349
;WIDTH:0.311337
G1 X144.718 Y85.310 E0.01161
;WIDTH:0.267734
G1 X144.198 Y85.287 E0.00972
;WIDTH:0.22413
G1 X143.679 Y85.264 E0.00784
;WIDTH:0.180527
G1 X143.159 Y85.241 E0.00595
;WIDTH:0.136924
G1 X142.640 Y85.218 E0.00406
;WIPE_START
G1 F8640.000
G1 X143.159 Y85.241 E-0.12008
;WIPE_END
G1 E-0.67992 F2100.000
G1 Z0.600 F10800.000
G1 X137.679 Y84.996
G1 Z0.200
G1 E0.80000 F2100.000
;WIDTH:0.387862
G1 F1200.000
G1 X137.095 Y84.970 E0.01676
;WIDTH:0.338771
G1 X136.512 Y84.944 E0.01438
;WIDTH:0.289681
G1 X135.928 Y84.918 E0.01199
;WIDTH:0.240591
G1 X135.344 Y84.892 E0.00961
;WIDTH:0.191501
G1 X134.760 Y84.866 E0.00722
;WIDTH:0.142411
G1 X134.176 Y84.840 E0.00483
;WIPE_START
G1 F8640.000
G1 X134.760 Y84.866 E-0.13494
;WIPE_END
G1 E-0.66506 F2100.000
G1 Z0.600 F10800.000
G1 X129.216 Y84.619
G1 Z0.200
G1 E0.80000 F2100.000
;WIDTH:0.387862
G1 F1200.000
G1 X128.632 Y84.593 E0.01676
;WIDTH:0.338772
G1 X128.048 Y84.567 E0.01438
;WIDTH:0.289681
G1 X127.464 Y84.541 E0.01199
;WIDTH:0.240591
G1 X126.880 Y84.515 E0.00961
;WIDTH:0.191501
G1 X126.297 Y84.489 E0.00722
;WIDTH:0.142411
G1 X125.713 Y84.463 E0.00483
;WIPE_START
M73 Q10 S14
G1 F8640.000
G1 X126.297 Y84.489 E-0.13494
;WIPE_END
M73 P10 R14
G1 E-0.66506 F2100.000
G1 Z0.600 F10800.000
G1 X120.752 Y84.242
G1 Z0.200
G1 E0.80000 F2100.000
;WIDTH:0.387862
G1 F1200.000
G1 X120.169 Y84.216 E0.01676
;WIDTH:0.338771
G1 X119.585 Y84.190 E0.01438
;WIDTH:0.289681
G1 X119.001 Y84.164 E0.01199
;WIDTH:0.240591
G1 X118.417 Y84.138 E0.00961
;WIDTH:0.191501
G1 X117.833 Y84.112 E0.00722
;WIDTH:0.142411
G1 X117.249 Y84.086 E0.00483
;WIPE_START
G1 F8640.000
G1 X117.833 Y84.112 E-0.13494
;WIPE_END
G1 E-0.66506 F2100.000
G1 Z0.600 F10800.000
G1 X109.369 Y87.453
G1 Z0.200
G1 E0.80000 F2100.000
;WIDTH:0.104478
G1 F1200.000
G1 X108.856 Y87.504 E0.00264
;WIPE_START
G1 F8640.000
G1 X109.369 Y87.453 E-0.11895
;WIPE_END
G1 E-0.68105 F2100.000
G1 Z0.600 F10800.000
G1 X106.084 Y87.257
G1 Z0.200
G1 E0.80000 F2100.000
;WIDTH:0.131213
G1 F1200.000
G1 X105.578 Y87.108 E0.00387
;WIPE_START
G1 F8640.000
