; generated by PrusaSlicer 2.3.1+win64 on 2022-02-03 at 12:38:05 UTC

; 

; external perimeters extrusion width = 0.60mm
; perimeters extrusion width = 0.50mm
; infill extrusion width = 0.50mm
; solid infill extrusion width = 0.50mm
; top infill extrusion width = 0.45mm
; support material extrusion width = 0.38mm
; first layer extrusion width = 0.42mm

M73 P0 R342
M73 Q0 S345
M201 X1000 Y1000 Z200 E5000 ; sets maximum accelerations, mm/sec^2
M203 X200 Y200 Z12 E120 ; sets maximum feedrates, mm/sec
M204 P1250 R1250 T1250 ; sets acceleration (P, T) and retract acceleration (R), mm/sec^2
M205 X8.00 Y8.00 Z0.40 E4.50 ; sets the jerk limits, mm/sec
M205 S0 T0 ; sets the minimum extruding and travel feed rate, mm/sec
M107
;TYPE:Custom
M862.3 P "MK3S" ; printer model check
M862.1 P0.4 ; nozzle diameter check
M115 U3.9.3 ; tell printer latest fw version
G90 ; use absolute coordinates
M83 ; extruder relative mode
M104 S215 ; set extruder temp
M140 S68 ; set bed temp
M190 S68 ; wait for bed temp
M109 S215 ; wait for extruder temp
G28 W ; home all without mesh bed level
G80 ; mesh bed leveling
G1 Y-3.0 F1000.0 ; go outside print area
G92 E0.0
G1 X60.0 E9.0 F1000.0 ; intro line
G1 X100.0 E12.5 F1000.0 ; intro line
G92 E0.0
M221 S95

; Don't change E values below. Excessive value can damage the printer.

M907 E538 ; set extruder motor current
G21 ; set units to millimeters
G90 ; use absolute coordinates
M83 ; use relative distances for extrusion
M900 K0.05 ; Filament gcode LA 1.5
M900 K30 ; Filament gcode LA 1.0
;LAYER_CHANGE
;Z:0.2
;HEIGHT:0.2
;BEFORE_LAYER_CHANGE
G92 E0.0
;0.2


M73 P0 R341
G1 E-0.80000 F2100.000
G1 Z0.400 F10800.000
;AFTER_LAYER_CHANGE
;0.2
; printing object base.stl id:0 copy 0
G1 X124.705 Y47.334
G1 Z0.200
G1 E0.80000 F2100.000
M204 S1000
;TYPE:Support material
;WIDTH:0.42
G1 F1200.000
G1 X124.705 Y33.662 E0.42868
G1 X123.951 Y33.662 E0.02365
G1 X123.951 Y47.165 E0.42336
G1 X123.197 Y47.165 E0.02365
G1 X123.197 Y33.662 E0.42336
G1 X122.443 Y33.662 E0.02365
G1 X122.443 Y47.165 E0.42336
G1 X121.689 Y47.165 E0.02365
G1 X121.689 Y33.662 E0.42336
G1 X120.934 Y33.662 E0.02365
G1 X120.934 Y47.165 E0.42336
G1 X120.180 Y47.165 E0.02365
G1 X120.180 Y33.662 E0.42336
G1 X119.426 Y33.662 E0.02365
G1 X119.426 Y47.165 E0.42336
G1 X118.672 Y47.165 E0.02365
G1 X118.672 Y33.662 E0.42336
G1 X117.918 Y33.662 E0.02365
G1 X117.918 Y47.165 E0.42336
G1 X117.164 Y47.165 E0.02365
G1 X117.164 Y33.662 E0.42336
G1 X116.409 Y33.662 E0.02365
G1 X116.409 Y47.165 E0.42336
G1 X115.655 Y47.165 E0.02365
G1 X115.655 Y33.662 E0.42336
G1 X114.901 Y33.662 E0.02365
G1 X114.901 Y47.165 E0.42336
G1 X114.147 Y47.165 E0.02365
G1 X114.147 Y33.662 E0.42336
G1 X113.393 Y33.662 E0.02365
G1 X113.393 Y47.165 E0.42336
G1 X112.639 Y47.165 E0.02365
G1 X112.639 Y33.662 E0.42336
G1 X111.884 Y33.662 E0.02365
G1 X111.884 Y47.165 E0.42336
G1 X111.130 Y47.165 E0.02365
G1 X111.130 Y33.662 E0.42336
G1 X110.376 Y33.662 E0.02365
G1 X110.376 Y47.165 E0.42336
G1 X109.622 Y47.165 E0.02365
G1 X109.622 Y33.662 E0.42336
G1 X109.563 Y33.662 E0.00185
G1 X109.563 Y35.978 E0.07260
G1 X108.868 Y35.978 E0.02180
G1 X108.868 Y47.165 E0.35075
G1 X108.114 Y47.165 E0.02365
G1 X108.114 Y35.978 E0.35075
G1 X107.360 Y35.978 E0.02365
G1 X107.360 Y47.334 E0.35607
;WIPE_START
G1 F8640.000
G1 X107.360 Y44.043 E-0.76000
;WIPE_END
G1 E-0.04000 F2100.000
G1 Z0.600 F10800.000
G1 X114.732 Y147.859
G1 Z0.200
G1 E0.80000 F2100.000
;TYPE:Perimeter
G1 F1200.000
G1 X115.417 Y147.912 E0.02154
G1 X116.062 Y148.085 E0.02096
G1 X116.662 Y148.365 E0.02075
G1 X117.204 Y148.744 E0.02075
G1 X117.672 Y149.212 E0.02075
G1 X118.052 Y149.755 E0.02075
G1 X118.332 Y150.354 E0.02075
G1 X118.503 Y150.994 E0.02075
G1 X118.561 Y151.653 E0.02075
G1 X118.503 Y152.312 E0.02075
G1 X118.332 Y152.952 E0.02075
G1 X118.052 Y153.552 E0.02075
G1 X117.672 Y154.094 E0.02075
G1 X117.227 Y154.539 E0.01975
G1 X116.668 Y154.939 E0.02154
G1 X116.062 Y155.221 E0.02096
G1 X115.423 Y155.393 E0.02075
G1 X114.764 Y155.450 E0.02075
G1 X114.104 Y155.393 E0.02075
G1 X113.465 Y155.221 E0.02075
G1 X112.865 Y154.942 E0.02075
G1 X112.323 Y154.562 E0.02075
G1 X111.855 Y154.094 E0.02075
G1 X111.475 Y153.552 E0.02075
G1 X111.195 Y152.952 E0.02075
G1 X111.024 Y152.312 E0.02075
G1 X110.966 Y151.653 E0.02075
G1 X111.024 Y150.994 E0.02075
G1 X111.195 Y150.354 E0.02075
G1 X111.475 Y149.755 E0.02075
G1 X111.855 Y149.212 E0.02075
G1 X112.323 Y148.744 E0.02075
G1 X112.865 Y148.365 E0.02075
G1 X113.465 Y148.085 E0.02075
G1 X114.104 Y147.914 E0.02075
G1 X114.672 Y147.864 E0.01787
G1 X114.705 Y148.240 F10800.000
G1 F1200.000
G1 X115.353 Y148.285 E0.02036
G1 X115.933 Y148.441 E0.01883
G1 X116.473 Y148.693 E0.01868
G1 X116.961 Y149.034 E0.01868
G1 X117.382 Y149.456 E0.01868
G1 X117.724 Y149.944 E0.01868
G1 X117.976 Y150.484 E0.01868
G1 X118.130 Y151.059 E0.01868
G1 X118.182 Y151.653 E0.01868
G1 X118.130 Y152.247 E0.01868
G1 X117.976 Y152.822 E0.01868
G1 X117.724 Y153.362 E0.01868
G1 X117.382 Y153.851 E0.01868
G1 X116.982 Y154.251 E0.01774
G1 X116.477 Y154.612 E0.01947
G1 X115.933 Y154.866 E0.01883
G1 X115.357 Y155.020 E0.01868
G1 X114.764 Y155.072 E0.01868
G1 X114.170 Y155.020 E0.01868
G1 X113.594 Y154.866 E0.01868
G1 X113.054 Y154.614 E0.01868
G1 X112.566 Y154.272 E0.01868
G1 X112.145 Y153.851 E0.01868
G1 X111.803 Y153.362 E0.01868
G1 X111.551 Y152.822 E0.01868
G1 X111.397 Y152.247 E0.01868
G1 X111.345 Y151.653 E0.01868
G1 X111.397 Y151.059 E0.01868
G1 X111.551 Y150.484 E0.01868
G1 X111.803 Y149.944 E0.01868
G1 X112.145 Y149.456 E0.01868
G1 X112.566 Y149.034 E0.01868
G1 X113.054 Y148.693 E0.01868
G1 X113.594 Y148.441 E0.01868
G1 X114.170 Y148.286 E0.01868
G1 X114.645 Y148.245 E0.01496
G1 X114.678 Y148.621 F10800.000
G1 F1200.000
G1 X115.289 Y148.658 E0.01919
G1 X115.803 Y148.796 E0.01671
G1 X116.284 Y149.020 E0.01662
G1 X116.718 Y149.324 E0.01662
G1 X117.092 Y149.699 E0.01662
G1 X117.396 Y150.133 E0.01662
G1 X117.620 Y150.613 E0.01662
G1 X117.757 Y151.125 E0.01662
G1 X117.804 Y151.653 E0.01662
G1 X117.757 Y152.181 E0.01662
G1 X117.620 Y152.693 E0.01662
G1 X117.396 Y153.173 E0.01662
G1 X117.092 Y153.607 E0.01662
G1 X116.738 Y153.962 E0.01573
G1 X116.286 Y154.285 E0.01740
G1 X115.803 Y154.510 E0.01671
G1 X115.291 Y154.647 E0.01662
G1 X114.764 Y154.693 E0.01662
G1 X114.236 Y154.647 E0.01662
G1 X113.724 Y154.510 E0.01662
G1 X113.244 Y154.286 E0.01662
G1 X112.809 Y153.982 E0.01662
G1 X112.435 Y153.607 E0.01662
G1 X112.131 Y153.173 E0.01662
G1 X111.907 Y152.693 E0.01662
G1 X111.770 Y152.181 E0.01662
G1 X111.723 Y151.653 E0.01662
G1 X111.770 Y151.125 E0.01662
G1 X111.907 Y150.613 E0.01662
G1 X112.131 Y150.133 E0.01662
G1 X112.435 Y149.699 E0.01662
G1 X112.809 Y149.324 E0.01662
G1 X113.244 Y149.020 E0.01662
G1 X113.724 Y148.796 E0.01662
G1 X114.236 Y148.659 E0.01662
G1 X114.618 Y148.626 E0.01204
G1 X114.301 Y149.032 F10800.000
;TYPE:External perimeter
G1 F1200.000
G1 X114.737 Y148.994 E0.01372
G1 X115.225 Y149.032 E0.01533
G1 X115.674 Y149.152 E0.01458
G1 X116.094 Y149.348 E0.01455
G1 X116.474 Y149.614 E0.01455
G1 X116.802 Y149.942 E0.01455
G1 X117.069 Y150.322 E0.01455
G1 X117.265 Y150.743 E0.01455
G1 X117.385 Y151.191 E0.01455
G1 X117.425 Y151.653 E0.01455
G1 X117.385 Y152.115 E0.01455
G1 X117.265 Y152.563 E0.01455
G1 X117.069 Y152.984 E0.01455
G1 X116.802 Y153.364 E0.01455
G1 X116.493 Y153.673 E0.01372
G1 X116.095 Y153.958 E0.01533
G1 X115.674 Y154.154 E0.01458
G1 X115.226 Y154.274 E0.01455
G1 X114.764 Y154.315 E0.01455
G1 X114.301 Y154.274 E0.01455
G1 X113.853 Y154.154 E0.01455
G1 X113.433 Y153.958 E0.01455
G1 X113.053 Y153.692 E0.01455
G1 X112.725 Y153.364 E0.01455
G1 X112.459 Y152.984 E0.01455
G1 X112.263 Y152.563 E0.01455
G1 X112.142 Y152.115 E0.01455
G1 X112.102 Y151.653 E0.01455
G1 X112.142 Y151.191 E0.01455
G1 X112.263 Y150.743 E0.01455
G1 X112.459 Y150.322 E0.01455
G1 X112.725 Y149.942 E0.01455
G1 X113.053 Y149.614 E0.01455
G1 X113.433 Y149.348 E0.01455
G1 X113.853 Y149.152 E0.01455
G1 X114.243 Y149.048 E0.01267
G1 X114.438 Y148.656 F10800.000
;WIPE_START
G1 F8640.000
G1 X114.737 Y148.994 E-0.11470
G1 X115.225 Y149.032 E-0.11289
G1 X115.674 Y149.152 E-0.10736
G1 X116.094 Y149.348 E-0.10713
G1 X116.474 Y149.614 E-0.10712
G1 X116.802 Y149.942 E-0.10713
G1 X117.060 Y150.310 E-0.10366
;WIPE_END
G1 E-0.04000 F2100.000
G1 Z0.600 F10800.000
G1 X111.059 Y154.272
G1 Z0.200
G1 E0.80000 F2100.000
;TYPE:Perimeter
G1 F1200.000
G1 X111.275 Y154.580 E0.01180
G1 X111.836 Y155.142 E0.02489
G1 X112.145 Y155.358 E0.01180
G1 X111.059 Y155.358 E0.03404
G1 X111.059 Y154.332 E0.03216
;WIPE_START
G1 F8640.000
G1 X111.275 Y154.580 E-0.07599
G1 X111.836 Y155.142 E-0.18331
G1 X112.145 Y155.358 E-0.08692
G1 X111.059 Y155.358 E-0.25067
G1 X111.059 Y154.651 E-0.16312
;WIPE_END
G1 E-0.04000 F2100.000
G1 Z0.600 F10800.000
G1 X110.682 Y155.735
G1 Z0.200
G1 E0.80000 F2100.000
G1 F1200.000
G1 X110.682 Y152.492 E0.10167
G1 X110.840 Y153.081 E0.01912
G1 X111.147 Y153.741 E0.02282
G1 X111.565 Y154.337 E0.02282
G1 X112.080 Y154.852 E0.02282
G1 X112.676 Y155.269 E0.02282
G1 X113.335 Y155.577 E0.02282
G1 X113.925 Y155.735 E0.01912
G1 X110.742 Y155.735 E0.09979
;WIPE_START
G1 F8640.000
G1 X110.682 Y152.492 E-0.74887
G1 X110.694 Y152.539 E-0.01113
;WIPE_END
G1 E-0.04000 F2100.000
G1 Z0.600 F10800.000
G1 X117.379 Y155.358
G1 Z0.200
G1 E0.80000 F2100.000
G1 F1200.000
G1 X117.716 Y155.117 E0.01300
G1 X118.252 Y154.580 E0.02377
G1 X118.468 Y154.272 E0.01180
G1 X118.468 Y155.358 E0.03404
G1 X117.439 Y155.358 E0.03227
;WIPE_START
G1 F8640.000
G1 X117.716 Y155.117 E-0.08484
G1 X118.252 Y154.580 E-0.17508
G1 X118.468 Y154.272 E-0.08692
G1 X118.468 Y155.358 E-0.25067
G1 X117.764 Y155.358 E-0.16249
;WIPE_END
G1 E-0.04000 F2100.000
G1 Z0.600 F10800.000
G1 X118.845 Y155.735
G1 Z0.200
G1 E0.80000 F2100.000
G1 F1200.000
G1 X115.603 Y155.735 E0.10167
G1 X116.192 Y155.577 E0.01912
G1 X116.859 Y155.266 E0.02309
G1 X117.471 Y154.828 E0.02361
G1 X117.962 Y154.337 E0.02176
G1 X118.380 Y153.741 E0.02282
G1 X118.687 Y153.081 E0.02282
G1 X118.845 Y152.492 E0.01912
G1 X118.845 Y155.675 E0.09979
;WIPE_START
G1 F8640.000
G1 X115.603 Y155.735 E-0.74887
G1 X115.649 Y155.722 E-0.01113
;WIPE_END
G1 E-0.04000 F2100.000
G1 Z0.600 F10800.000
G1 X169.468 Y39.034
G1 Z0.200
G1 E0.80000 F2100.000
G1 F1200.000
G1 X169.252 Y38.726 E0.01180
G1 X168.691 Y38.164 E0.02489
G1 X168.383 Y37.949 E0.01180
G1 X169.468 Y37.949 E0.03404
G1 X169.468 Y38.974 E0.03216
;WIPE_START
G1 F8640.000
G1 X169.252 Y38.726 E-0.07599
G1 X168.691 Y38.164 E-0.18330
G1 X168.383 Y37.949 E-0.08692
G1 X169.468 Y37.949 E-0.25067
G1 X169.468 Y38.655 E-0.16312
;WIPE_END
G1 E-0.04000 F2100.000
G1 Z0.600 F10800.000
G1 X169.845 Y37.571
G1 Z0.200
G1 E0.80000 F2100.000
G1 F1200.000
G1 X169.845 Y40.814 E0.10167
G1 X169.687 Y40.225 E0.01912
G1 X169.380 Y39.565 E0.02282
G1 X168.962 Y38.969 E0.02282
G1 X168.448 Y38.454 E0.02282
G1 X167.851 Y38.037 E0.02282
G1 X167.192 Y37.729 E0.02282
G1 X166.603 Y37.571 E0.01912
G1 X169.785 Y37.571 E0.09979
;WIPE_START
G1 F8640.000
G1 X169.845 Y40.814 E-0.74887
G1 X169.833 Y40.768 E-0.01113
;WIPE_END
G1 E-0.04000 F2100.000
G1 Z0.600 F10800.000
G1 X168.204 Y38.744
G1 Z0.200
G1 E0.80000 F2100.000
G1 F1200.000
G1 X168.672 Y39.212 E0.02075
G1 X169.052 Y39.755 E0.02075
G1 X169.332 Y40.354 E0.02075
G1 X169.503 Y40.994 E0.02075
G1 X169.561 Y41.653 E0.02075
G1 X169.503 Y42.312 E0.02075
G1 X169.332 Y42.952 E0.02075
G1 X169.052 Y43.552 E0.02075
G1 X168.672 Y44.094 E0.02075
G1 X168.204 Y44.562 E0.02075
G1 X167.662 Y44.942 E0.02075
G1 X167.062 Y45.221 E0.02075
G1 X166.423 Y45.393 E0.02075
G1 X165.764 Y45.450 E0.02075
G1 X165.104 Y45.393 E0.02075
G1 X164.465 Y45.221 E0.02075
G1 X163.865 Y44.942 E0.02075
G1 X163.323 Y44.562 E0.02075
G1 X162.855 Y44.094 E0.02075
G1 X162.475 Y43.552 E0.02075
G1 X162.195 Y42.952 E0.02075
G1 X162.024 Y42.312 E0.02075
G1 X161.966 Y41.653 E0.02075
G1 X162.024 Y40.994 E0.02075
G1 X162.195 Y40.354 E0.02075
G1 X162.475 Y39.755 E0.02075
G1 X162.855 Y39.212 E0.02075
G1 X163.323 Y38.744 E0.02075
G1 X163.865 Y38.365 E0.02075
G1 X164.465 Y38.085 E0.02075
G1 X165.104 Y37.914 E0.02075
G1 X165.732 Y37.859 E0.01975
G1 X166.417 Y37.912 E0.02154
G1 X167.062 Y38.085 E0.02096
G1 X167.662 Y38.365 E0.02075
G1 X168.155 Y38.710 E0.01887
G1 X167.939 Y39.019 F10800.000
G1 F1200.000
G1 X168.382 Y39.456 E0.01952
G1 X168.724 Y39.944 E0.01868
G1 X168.976 Y40.484 E0.01868
G1 X169.130 Y41.059 E0.01868
G1 X169.182 Y41.653 E0.01868
G1 X169.130 Y42.247 E0.01868
G1 X168.976 Y42.822 E0.01868
G1 X168.724 Y43.362 E0.01868
G1 X168.382 Y43.851 E0.01868
G1 X167.961 Y44.272 E0.01868
G1 X167.473 Y44.614 E0.01868
G1 X166.933 Y44.866 E0.01868
G1 X166.357 Y45.020 E0.01868
G1 X165.764 Y45.072 E0.01868
G1 X165.170 Y45.020 E0.01868
G1 X164.594 Y44.866 E0.01868
G1 X164.054 Y44.614 E0.01868
G1 X163.566 Y44.272 E0.01868
G1 X163.145 Y43.851 E0.01868
G1 X162.803 Y43.362 E0.01868
G1 X162.551 Y42.822 E0.01868
G1 X162.397 Y42.247 E0.01868
G1 X162.345 Y41.653 E0.01868
G1 X162.397 Y41.059 E0.01868
G1 X162.551 Y40.484 E0.01868
G1 X162.803 Y39.944 E0.01868
G1 X163.145 Y39.456 E0.01868
G1 X163.566 Y39.034 E0.01868
G1 X164.054 Y38.693 E0.01868
G1 X164.594 Y38.441 E0.01868
G1 X165.170 Y38.286 E0.01868
G1 X165.734 Y38.237 E0.01774
G1 X166.353 Y38.285 E0.01947
G1 X166.933 Y38.441 E0.01883
G1 X167.473 Y38.693 E0.01868
G1 X167.890 Y38.984 E0.01596
G1 X167.673 Y39.293 F10800.000
G1 F1200.000
G1 X168.092 Y39.699 E0.01829
G1 X168.396 Y40.133 E0.01662
G1 X168.620 Y40.613 E0.01662
G1 X168.757 Y41.125 E0.01662
G1 X168.804 Y41.653 E0.01662
G1 X168.757 Y42.181 E0.01662
G1 X168.620 Y42.693 E0.01662
G1 X168.396 Y43.173 E0.01662
G1 X168.092 Y43.607 E0.01662
G1 X167.718 Y43.982 E0.01662
G1 X167.284 Y44.286 E0.01662
G1 X166.803 Y44.510 E0.01662
G1 X166.291 Y44.647 E0.01662
G1 X165.764 Y44.693 E0.01662
G1 X165.236 Y44.647 E0.01662
G1 X164.724 Y44.510 E0.01662
G1 X164.244 Y44.286 E0.01662
G1 X163.809 Y43.982 E0.01662
G1 X163.435 Y43.607 E0.01662
G1 X163.131 Y43.173 E0.01662
G1 X162.907 Y42.693 E0.01662
G1 X162.770 Y42.181 E0.01662
G1 X162.723 Y41.653 E0.01662
G1 X162.770 Y41.125 E0.01662
G1 X162.907 Y40.613 E0.01662
G1 X163.131 Y40.133 E0.01662
G1 X163.435 Y39.699 E0.01662
G1 X163.809 Y39.324 E0.01662
G1 X164.244 Y39.020 E0.01662
G1 X164.724 Y38.796 E0.01662
G1 X165.236 Y38.659 E0.01662
G1 X165.735 Y38.616 E0.01573
G1 X166.289 Y38.658 E0.01740
G1 X166.803 Y38.796 E0.01671
G1 X167.284 Y39.020 E0.01662
G1 X167.624 Y39.259 E0.01304
G1 X167.474 Y39.614 F10800.000
;TYPE:External perimeter
G1 F1200.000
G1 X167.802 Y39.942 E0.01455
G1 X168.069 Y40.322 E0.01455
G1 X168.265 Y40.743 E0.01455
G1 X168.385 Y41.191 E0.01455
G1 X168.425 Y41.653 E0.01455
G1 X168.385 Y42.115 E0.01455
G1 X168.265 Y42.563 E0.01455
G1 X168.069 Y42.984 E0.01455
G1 X167.802 Y43.364 E0.01455
G1 X167.474 Y43.692 E0.01455
G1 X167.094 Y43.958 E0.01455
G1 X166.674 Y44.154 E0.01455
G1 X166.226 Y44.274 E0.01455
G1 X165.764 Y44.315 E0.01455
G1 X165.301 Y44.274 E0.01455
G1 X164.853 Y44.154 E0.01455
G1 X164.433 Y43.958 E0.01455
G1 X164.053 Y43.692 E0.01455
G1 X163.725 Y43.364 E0.01455
G1 X163.459 Y42.984 E0.01455
G1 X163.263 Y42.563 E0.01455
G1 X163.142 Y42.115 E0.01455
G1 X163.102 Y41.653 E0.01455
G1 X163.142 Y41.191 E0.01455
G1 X163.263 Y40.743 E0.01455
G1 X163.459 Y40.322 E0.01455
G1 X163.725 Y39.942 E0.01455
G1 X164.053 Y39.614 E0.01455
G1 X164.433 Y39.348 E0.01455
G1 X164.853 Y39.152 E0.01455
G1 X165.301 Y39.032 E0.01455
G1 X165.737 Y38.994 E0.01372
G1 X166.225 Y39.032 E0.01533
G1 X166.674 Y39.152 E0.01458
G1 X167.094 Y39.348 E0.01455
G1 X167.425 Y39.580 E0.01267
G1 X167.850 Y39.477 F10800.000
;WIPE_START
G1 F8640.000
G1 X167.802 Y39.942 E-0.12079
G1 X168.069 Y40.322 E-0.10712
G1 X168.265 Y40.743 E-0.10713
G1 X168.385 Y41.191 E-0.10713
G1 X168.425 Y41.653 E-0.10713
G1 X168.385 Y42.115 E-0.10713
G1 X168.269 Y42.549 E-0.10358
;WIPE_END
G1 E-0.04000 F2100.000
G1 Z0.600 F10800.000
G1 X163.145 Y37.949
G1 Z0.200
G1 E0.80000 F2100.000
;TYPE:Perimeter
G1 F1200.000
G1 X162.836 Y38.164 E0.01180
G1 X162.275 Y38.726 E0.02489
G1 X162.059 Y39.034 E0.01180
G1 X162.059 Y37.949 E0.03404
G1 X163.085 Y37.949 E0.03216
;WIPE_START
G1 F8640.000
