; generated by PrusaSlicer 2.3.1+win64 on 2022-02-03 at 12:21:23 UTC

; 

; external perimeters extrusion width = 0.45mm
; perimeters extrusion width = 0.45mm
; infill extrusion width = 0.45mm
; solid infill extrusion width = 0.45mm
; top infill extrusion width = 0.40mm
; first layer extrusion width = 0.42mm

M73 P0 R32
M73 Q0 S32
M201 X1000 Y1000 Z200 E5000 ; sets maximum accelerations, mm/sec^2
M203 X200 Y200 Z12 E120 ; sets maximum feedrates, mm/sec
M204 P1250 R1250 T1250 ; sets acceleration (P, T) and retract acceleration (R), mm/sec^2
M205 X8.00 Y8.00 Z0.40 E4.50 ; sets the jerk limits, mm/sec
M205 S0 T0 ; sets the minimum extruding and travel feed rate, mm/sec
M107
;TYPE:Custom
M862.3 P "MK3S" ; printer model check
M862.1 P0.4 ; nozzle diameter check
M115 U3.9.3 ; tell printer latest fw version
G90 ; use absolute coordinates
M83 ; extruder relative mode
M104 S215 ; set extruder temp
M140 S68 ; set bed temp
M190 S68 ; wait for bed temp
M109 S215 ; wait for extruder temp
G28 W ; home all without mesh bed level
G80 ; mesh bed leveling
G1 Y-3.0 F1000.0 ; go outside print area
G92 E0.0
G1 X60.0 E9.0 F1000.0 ; intro line
G1 X100.0 E12.5 F1000.0 ; intro line
G92 E0.0
M221 S95

; Don't change E values below. Excessive value can damage the printer.
M907 E430 ; set extruder motor current
G21 ; set units to millimeters
G90 ; use absolute coordinates
M83 ; use relative distances for extrusion
M900 K0.05 ; Filament gcode LA 1.5
M900 K30 ; Filament gcode LA 1.0
;LAYER_CHANGE
;Z:0.2
;HEIGHT:0.2
;BEFORE_LAYER_CHANGE
G92 E0.0
;0.2


G1 E-0.80000 F2100.000
G1 Z0.400 F10800.000
;AFTER_LAYER_CHANGE
;0.2
G1 X129.362 Y100.085
G1 Z0.200
G1 E0.80000 F2100.000
M204 S1000
;TYPE:Skirt
;WIDTH:0.42
G1 F1200.000
G1 X129.965 Y99.667 E0.02301
G1 X130.751 Y99.264 E0.02767
G1 X131.545 Y98.981 E0.02645
G1 X132.356 Y98.804 E0.02602
G1 X133.183 Y98.731 E0.02603
G1 X134.001 Y98.760 E0.02566
G1 X134.846 Y98.900 E0.02684
G1 X135.765 Y99.187 E0.03019
G1 X136.564 Y99.565 E0.02774
G1 X137.253 Y100.009 E0.02569
G1 X138.005 Y100.642 E0.03083
G1 X138.483 Y100.203 E0.02036
G1 X139.158 Y99.730 E0.02583
G1 X139.985 Y99.302 E0.02920
G1 X140.754 Y99.026 E0.02562
G1 X141.565 Y98.846 E0.02604
G1 X142.526 Y98.766 E0.03025
G1 X143.369 Y98.811 E0.02648
G1 X144.190 Y98.964 E0.02618
G1 X145.033 Y99.236 E0.02777
G1 X145.756 Y99.577 E0.02507
G1 X146.422 Y99.996 E0.02466
G1 X146.795 Y100.308 E0.01525
G1 X147.075 Y100.060 E0.01171
G1 X147.726 Y99.601 E0.02498
G1 X148.534 Y99.177 E0.02860
G1 X149.382 Y98.871 E0.02830
G1 X150.223 Y98.690 E0.02696
G1 X151.075 Y98.620 E0.02681
G1 X151.911 Y98.659 E0.02623
G1 X152.706 Y98.798 E0.02530
G1 X153.724 Y99.128 E0.03356
G1 X154.371 Y99.441 E0.02253
G1 X154.972 Y99.817 E0.02221
G1 X155.833 Y100.541 E0.03529
G1 X156.328 Y101.093 E0.02325
G1 X156.762 Y101.706 E0.02353
G1 X157.275 Y102.704 E0.03519
G1 X157.512 Y103.387 E0.02268
G1 X157.675 Y104.106 E0.02310
G1 X157.767 Y105.226 E0.03524
G1 X157.721 Y105.976 E0.02358
G1 X157.591 Y106.711 E0.02340
G1 X157.321 Y107.580 E0.02852
G1 X156.937 Y108.400 E0.02841
G1 X156.452 Y109.147 E0.02791
G1 X155.843 Y109.851 E0.02918
G1 X155.251 Y110.376 E0.02481
G1 X154.540 Y110.862 E0.02701
G1 X153.708 Y111.280 E0.02919
G1 X152.954 Y111.541 E0.02504
G1 X152.151 Y111.711 E0.02573
G1 X151.244 Y111.782 E0.02853
G1 X150.420 Y111.738 E0.02585
G1 X149.616 Y111.593 E0.02562
G1 X148.771 Y111.323 E0.02782
G1 X148.049 Y110.988 E0.02495
G1 X147.349 Y110.549 E0.02592
G1 X146.977 Y110.240 E0.01516
G1 X146.679 Y110.504 E0.01249
G1 X146.022 Y110.962 E0.02511
G1 X145.189 Y111.393 E0.02939
G1 X144.401 Y111.674 E0.02625
G1 X143.574 Y111.854 E0.02655
G1 X142.696 Y111.927 E0.02760
G1 X141.823 Y111.884 E0.02743
G1 X141.020 Y111.739 E0.02558
G1 X140.202 Y111.480 E0.02691
G1 X139.432 Y111.122 E0.02662
G1 X138.668 Y110.633 E0.02844
G1 X137.937 Y110.018 E0.02995
G1 X137.486 Y110.432 E0.01919
G1 X136.807 Y110.912 E0.02608
G1 X135.900 Y111.378 E0.03197
G1 X135.143 Y111.643 E0.02514
G1 X134.345 Y111.816 E0.02561
G1 X133.414 Y111.891 E0.02929
G1 X132.613 Y111.850 E0.02515
G1 X131.788 Y111.703 E0.02628
G1 X130.966 Y111.444 E0.02700
G1 X130.218 Y111.098 E0.02584
G1 X129.493 Y110.641 E0.02689
G1 X128.992 Y110.224 E0.02043
G1 X128.387 Y110.643 E0.02309
G1 X127.627 Y111.035 E0.02682
G1 X126.846 Y111.318 E0.02605
G1 X126.019 Y111.502 E0.02656
G1 X125.116 Y111.580 E0.02842
G1 X124.291 Y111.544 E0.02588
G1 X123.483 Y111.404 E0.02571
G1 X122.488 Y111.084 E0.03278
G1 X121.821 Y110.763 E0.02322
G1 X121.186 Y110.364 E0.02350
G1 X120.353 Y109.660 E0.03421
G1 X119.859 Y109.109 E0.02321
G1 X119.425 Y108.498 E0.02351
G1 X118.923 Y107.527 E0.03427
G1 X118.675 Y106.819 E0.02353
G1 X118.511 Y106.098 E0.02316
G1 X118.421 Y105.141 E0.03016
G1 X118.469 Y104.189 E0.02988
G1 X118.618 Y103.395 E0.02533
G1 X118.870 Y102.606 E0.02596
G1 X119.254 Y101.791 E0.02824
G1 X119.695 Y101.105 E0.02560
G1 X120.229 Y100.467 E0.02606
G1 X120.870 Y99.876 E0.02735
G1 X121.637 Y99.343 E0.02930
G1 X122.329 Y98.985 E0.02442
G1 X123.068 Y98.708 E0.02476
G1 X124.057 Y98.486 E0.03176
G1 X124.834 Y98.421 E0.02446
G1 X125.624 Y98.447 E0.02476
G1 X126.572 Y98.609 E0.03015
G1 X127.409 Y98.875 E0.02757
G1 X128.162 Y99.227 E0.02604
G1 X128.876 Y99.680 E0.02651
G1 X129.316 Y100.046 E0.01797
G1 X129.341 Y100.559 F10800.000
G1 F1200.000
G1 X130.149 Y99.996 E0.03089
G1 X130.890 Y99.615 E0.02611
M73 P0 R31
G1 X131.638 Y99.347 E0.02491
G1 X132.425 Y99.175 E0.02525
G1 X133.204 Y99.108 E0.02453
G1 X133.975 Y99.136 E0.02418
G1 X134.770 Y99.270 E0.02529
G1 X135.639 Y99.543 E0.02855
G1 X136.391 Y99.900 E0.02612
G1 X137.038 Y100.319 E0.02416
G1 X137.653 Y100.838 E0.02524
G1 X137.975 Y101.185 E0.01486
G1 X138.710 Y100.504 E0.03142
G1 X139.364 Y100.047 E0.02501
G1 X140.146 Y99.644 E0.02761
G1 X140.870 Y99.385 E0.02408
G1 X141.609 Y99.220 E0.02376
G1 X142.520 Y99.143 E0.02864
G1 X143.314 Y99.185 E0.02493
G1 X144.086 Y99.326 E0.02463
G1 X144.905 Y99.591 E0.02698
G1 X145.584 Y99.913 E0.02355
G1 X146.209 Y100.308 E0.02318
G1 X146.803 Y100.809 E0.02437
G1 X147.302 Y100.361 E0.02102
G1 X147.912 Y99.929 E0.02345
G1 X148.697 Y99.517 E0.02780
G1 X149.475 Y99.236 E0.02591
G1 X150.266 Y99.065 E0.02540
G1 X151.094 Y98.997 E0.02604
G1 X151.859 Y99.033 E0.02401
G1 X152.603 Y99.161 E0.02368
G1 X153.572 Y99.473 E0.03192
G1 X154.180 Y99.767 E0.02116
G1 X154.760 Y100.129 E0.02147
G1 X155.561 Y100.802 E0.03279
G1 X156.040 Y101.337 E0.02249
G1 X156.447 Y101.912 E0.02210
G1 X156.923 Y102.840 E0.03270
G1 X157.152 Y103.500 E0.02192
G1 X157.304 Y104.175 E0.02170
G1 X157.390 Y105.217 E0.03275
G1 X157.348 Y105.922 E0.02216
G1 X157.227 Y106.612 E0.02195
G1 X156.974 Y107.433 E0.02694
G1 X156.613 Y108.207 E0.02678
G1 X156.158 Y108.911 E0.02628
G1 X155.583 Y109.578 E0.02761
G1 X155.028 Y110.072 E0.02330
G1 X154.359 Y110.531 E0.02543
G1 X153.572 Y110.928 E0.02763
G1 X152.863 Y111.175 E0.02355
G1 X152.108 Y111.336 E0.02421
G1 X151.250 Y111.405 E0.02698
G1 X150.475 Y111.365 E0.02434
G1 X149.719 Y111.229 E0.02409
G1 X148.897 Y110.968 E0.02704
G1 X148.220 Y110.652 E0.02343
G1 X147.561 Y110.237 E0.02439
G1 X146.970 Y109.740 E0.02423
G1 X146.453 Y110.202 E0.02175
G1 X145.837 Y110.633 E0.02356
G1 X145.028 Y111.052 E0.02858
G1 X144.287 Y111.315 E0.02465
G1 X143.507 Y111.483 E0.02502
G1 X142.678 Y111.551 E0.02605
G1 X141.854 Y111.508 E0.02588
G1 X141.122 Y111.375 E0.02333
G1 X140.327 Y111.124 E0.02614
G1 X139.603 Y110.786 E0.02506
G1 X138.882 Y110.322 E0.02686
G1 X138.305 Y109.835 E0.02369
G1 X137.969 Y109.474 E0.01546
G1 X137.258 Y110.131 E0.03035
G1 X136.600 Y110.596 E0.02526
G1 X135.740 Y111.037 E0.03029
G1 X135.030 Y111.283 E0.02356
G1 X134.301 Y111.441 E0.02339
G1 X133.420 Y111.514 E0.02774
G1 X132.666 Y111.477 E0.02365
G1 X131.889 Y111.339 E0.02474
G1 X131.092 Y111.088 E0.02622
G1 X130.388 Y110.761 E0.02431
G1 X129.705 Y110.330 E0.02534
G1 X129.014 Y109.748 E0.02832
G1 X128.203 Y110.314 E0.03101
G1 X127.486 Y110.685 E0.02530
G1 X126.752 Y110.953 E0.02451
G1 X125.949 Y111.131 E0.02577
G1 X125.120 Y111.203 E0.02610
G1 X124.343 Y111.170 E0.02439
G1 X123.585 Y111.041 E0.02408
G1 X122.640 Y110.738 E0.03113
G1 X121.994 Y110.428 E0.02247
G1 X121.399 Y110.052 E0.02207
G1 X120.625 Y109.399 E0.03176
G1 X120.147 Y108.866 E0.02245
G1 X119.740 Y108.291 E0.02208
G1 X119.274 Y107.389 E0.03182
G1 X119.040 Y106.724 E0.02211
G1 X118.881 Y106.027 E0.02242
G1 X118.798 Y105.119 E0.02857
G1 X118.842 Y104.246 E0.02742
G1 X118.986 Y103.476 E0.02456
G1 X119.225 Y102.733 E0.02447
G1 X119.577 Y101.985 E0.02593
G1 X120.006 Y101.319 E0.02483
G1 X120.510 Y100.719 E0.02456
G1 X121.096 Y100.178 E0.02502
G1 X121.821 Y99.672 E0.02773
G1 X122.492 Y99.325 E0.02367
G1 X123.188 Y99.065 E0.02329
G1 X124.102 Y98.861 E0.02935
G1 X124.855 Y98.798 E0.02370
G1 X125.597 Y98.824 E0.02330
G1 X126.495 Y98.978 E0.02854
G1 X127.261 Y99.222 E0.02523
G1 X127.970 Y99.552 E0.02450
G1 X128.663 Y99.992 E0.02573
G1 X129.295 Y100.521 E0.02587
G1 X129.325 Y101.107 F10800.000
G1 F1200.000
G1 X129.691 Y100.775 E0.01549
G1 X130.334 Y100.325 E0.02461
G1 X131.030 Y99.965 E0.02456
G1 X131.731 Y99.712 E0.02337
G1 X132.470 Y99.550 E0.02371
G1 X133.225 Y99.484 E0.02376
G1 X133.947 Y99.513 E0.02268
G1 X134.694 Y99.639 E0.02374
G1 X135.512 Y99.898 E0.02692
G1 X136.197 Y100.224 E0.02377
G1 X136.804 Y100.615 E0.02264
G1 X137.400 Y101.119 E0.02446
G1 X138.006 Y101.777 E0.02804
G1 X138.454 Y101.240 E0.02193
G1 X138.952 Y100.793 E0.02099
G1 X139.548 Y100.376 E0.02281
G1 X140.286 Y99.994 E0.02605
G1 X140.964 Y99.750 E0.02259
G1 X141.655 Y99.595 E0.02220
G1 X142.514 Y99.520 E0.02703
G1 X143.259 Y99.558 E0.02338
G1 X143.982 Y99.689 E0.02306
G1 X144.777 Y99.946 E0.02619
G1 X145.411 Y100.248 E0.02202
G1 X145.995 Y100.619 E0.02170
G1 X146.840 Y101.335 E0.03471
G1 X147.049 Y101.095 E0.00999
G1 X147.529 Y100.662 E0.02028
G1 X148.099 Y100.257 E0.02191
G1 X148.861 Y99.857 E0.02699
G1 X149.567 Y99.602 E0.02354
G1 X150.310 Y99.440 E0.02383
G1 X151.113 Y99.374 E0.02526
G1 X151.807 Y99.406 E0.02180
G1 X152.501 Y99.524 E0.02206
G1 X153.420 Y99.819 E0.03026
G1 X154.006 Y100.102 E0.02041
G1 X154.549 Y100.442 E0.02008
G1 X155.290 Y101.064 E0.03034
G1 X155.738 Y101.563 E0.02104
G1 X156.131 Y102.119 E0.02134
G1 X156.571 Y102.976 E0.03022
G1 X156.787 Y103.594 E0.02051
G1 X156.934 Y104.246 E0.02094
G1 X157.013 Y105.208 E0.03028
G1 X156.974 Y105.869 E0.02076
M73 Q1 S32
G1 X156.863 Y106.512 E0.02047
G1 X156.617 Y107.309 E0.02615
G1 X156.289 Y108.014 E0.02437
G1 X155.863 Y108.675 E0.02467
G1 X155.322 Y109.305 E0.02604
G1 X154.804 Y109.769 E0.02180
M73 P1 R31
G1 X154.177 Y110.201 E0.02386
G1 X153.436 Y110.576 E0.02606
G1 X152.772 Y110.809 E0.02206
G1 X152.064 Y110.961 E0.02268
G1 X151.257 Y111.028 E0.02540
G1 X150.506 Y110.989 E0.02357
G1 X149.821 Y110.866 E0.02181
G1 X149.023 Y110.612 E0.02626
G1 X148.391 Y110.315 E0.02190
G1 X147.774 Y109.926 E0.02288
G1 X146.933 Y109.214 E0.03454
G1 X146.724 Y109.453 E0.00996
G1 X146.226 Y109.900 E0.02099
G1 X145.652 Y110.304 E0.02200
G1 X144.866 Y110.711 E0.02776
G1 X144.173 Y110.955 E0.02304
G1 X143.440 Y111.112 E0.02349
G1 X142.661 Y111.174 E0.02451
G1 X141.909 Y111.135 E0.02361
G1 X141.224 Y111.012 E0.02182
G1 X140.453 Y110.768 E0.02536
G1 X139.775 Y110.450 E0.02349
G1 X139.116 Y110.027 E0.02454
G1 X138.558 Y109.555 E0.02293
G1 X137.936 Y108.881 E0.02874
G1 X137.527 Y109.375 E0.02007
G1 X137.013 Y109.844 E0.02185
G1 X136.415 Y110.267 E0.02294
G1 X135.603 Y110.685 E0.02865
G1 X134.938 Y110.918 E0.02207
G1 X134.257 Y111.067 E0.02187
G1 X133.425 Y111.137 E0.02619
G1 X132.719 Y111.103 E0.02215
G1 X131.991 Y110.976 E0.02319
G1 X131.217 Y110.732 E0.02543
G1 X130.559 Y110.425 E0.02276
G1 X129.918 Y110.018 E0.02379
G1 X129.283 Y109.481 E0.02610
G1 X129.026 Y109.204 E0.01184
G1 X128.661 Y109.535 E0.01544
G1 X128.018 Y109.985 E0.02461
G1 X127.323 Y110.344 E0.02452
G1 X126.658 Y110.587 E0.02223
G1 X125.880 Y110.760 E0.02498
G1 X125.100 Y110.826 E0.02453
G1 X124.393 Y110.796 E0.02219
G1 X123.687 Y110.678 E0.02247
G1 X122.791 Y110.392 E0.02948
G1 X122.186 Y110.103 E0.02102
G1 X121.611 Y109.740 E0.02131
G1 X120.896 Y109.137 E0.02932
G1 X120.448 Y108.639 E0.02101
G1 X120.056 Y108.084 E0.02132
G1 X119.626 Y107.252 E0.02937
G1 X119.399 Y106.609 E0.02135
G1 X119.252 Y105.956 E0.02099
G1 X119.174 Y105.099 E0.02699
G1 X119.215 Y104.302 E0.02500
G1 X119.349 Y103.580 E0.02304
G1 X119.580 Y102.860 E0.02371
G1 X119.902 Y102.178 E0.02365
G1 X120.303 Y101.552 E0.02330
G1 X120.791 Y100.971 E0.02379
G1 X121.342 Y100.464 E0.02349
G1 X122.006 Y100.001 E0.02536
G1 X122.655 Y99.666 E0.02292
G1 X123.307 Y99.423 E0.02182
G1 X124.146 Y99.236 E0.02695
G1 X124.875 Y99.174 E0.02293
G1 X125.570 Y99.200 E0.02182
G1 X126.417 Y99.347 E0.02694
G1 X127.114 Y99.570 E0.02294
G1 X127.779 Y99.877 E0.02296
G1 X128.450 Y100.303 E0.02493
G1 X129.031 Y100.791 E0.02378
G1 X129.284 Y101.063 E0.01165
G1 X129.302 Y101.640 F10800.000
G1 F1200.000
G1 X129.919 Y101.076 E0.02620
G1 X130.519 Y100.654 E0.02301
G1 X131.192 Y100.306 E0.02377
G1 X131.825 Y100.078 E0.02108
G1 X132.515 Y99.924 E0.02217
G1 X133.245 Y99.861 E0.02298
G1 X133.919 Y99.889 E0.02116
G1 X134.617 Y100.009 E0.02219
G1 X135.386 Y100.253 E0.02530
G1 X136.003 Y100.548 E0.02146
G1 X136.570 Y100.912 E0.02112
G1 X137.147 Y101.399 E0.02369
G1 X137.586 Y101.878 E0.02036
G1 X137.969 Y102.414 E0.02066
G1 X138.717 Y101.511 E0.03676
G1 X139.196 Y101.081 E0.02018
G1 X139.733 Y100.704 E0.02059
G1 X140.426 Y100.344 E0.02449
G1 X141.059 Y100.115 E0.02111
G1 X141.701 Y99.969 E0.02064
G1 X142.509 Y99.897 E0.02542
G1 X143.205 Y99.931 E0.02184
G1 X143.879 Y100.052 E0.02147
G1 X144.649 Y100.301 E0.02539
G1 X145.219 Y100.573 E0.01981
G1 X145.763 Y100.916 E0.02016
G1 X146.405 Y101.455 E0.02627
G1 X146.833 Y101.927 E0.01997
G1 X147.312 Y101.366 E0.02310
G1 X147.774 Y100.950 E0.01950
G1 X148.306 Y100.573 E0.02046
G1 X149.024 Y100.197 E0.02540
G1 X149.683 Y99.961 E0.02194
G1 X150.377 Y99.811 E0.02227
G1 X151.130 Y99.751 E0.02370
G1 X151.777 Y99.782 E0.02031
G1 X152.424 Y99.893 E0.02058
G1 X153.269 Y100.164 E0.02781
G1 X153.815 Y100.427 E0.01901
G1 X154.337 Y100.754 E0.01933
G1 X155.018 Y101.326 E0.02787
G1 X155.450 Y101.807 E0.02027
G1 X155.815 Y102.325 E0.01988
G1 X156.220 Y103.113 E0.02776
G1 X156.427 Y103.708 E0.01975
G1 X156.563 Y104.315 E0.01951
G1 X156.636 Y105.200 E0.02784
G1 X156.601 Y105.816 E0.01936
G1 X156.499 Y106.413 E0.01898
G1 X156.261 Y107.186 E0.02535
G1 X155.964 Y107.821 E0.02198
G1 X155.568 Y108.440 E0.02306
G1 X155.060 Y109.033 E0.02447
G1 X154.579 Y109.466 E0.02030
G1 X153.995 Y109.871 E0.02229
G1 X153.298 Y110.225 E0.02449
G1 X152.679 Y110.443 E0.02058
G1 X152.021 Y110.586 E0.02114
G1 X151.239 Y110.651 E0.02461
G1 X150.560 Y110.616 E0.02130
G1 X149.924 Y110.503 E0.02027
G1 X149.150 Y110.257 E0.02546
G1 X148.563 Y109.980 E0.02035
G1 X147.987 Y109.614 E0.02138
G1 X147.349 Y109.073 E0.02624
G1 X146.941 Y108.621 E0.01910
G1 X146.462 Y109.181 E0.02309
G1 X145.983 Y109.612 E0.02020
G1 X145.447 Y109.988 E0.02054
G1 X144.728 Y110.360 E0.02538
G1 X144.081 Y110.589 E0.02150
G1 X143.398 Y110.737 E0.02193
G1 X142.643 Y110.797 E0.02373
G1 X141.963 Y110.762 E0.02136
G1 X141.326 Y110.649 E0.02029
G1 X140.579 Y110.413 E0.02456
G1 X139.947 Y110.115 E0.02191
G1 X139.350 Y109.731 E0.02225
G1 X138.810 Y109.274 E0.02217
G1 X138.354 Y108.779 E0.02112
G1 X137.971 Y108.242 E0.02068
G1 X137.263 Y109.106 E0.03502
G1 X136.767 Y109.558 E0.02105
M73 Q1 S31
G1 X136.230 Y109.938 E0.02062
G1 X135.465 Y110.334 E0.02702
G1 X134.846 Y110.552 E0.02059
G1 X134.213 Y110.692 E0.02032
G1 X133.405 Y110.760 E0.02540
G1 X132.771 Y110.730 E0.01990
G1 X132.092 Y110.613 E0.02163
G1 X131.343 Y110.376 E0.02463
G1 X130.731 Y110.089 E0.02120
G1 X130.132 Y109.708 E0.02225
G1 X129.536 Y109.202 E0.02450
G1 X129.051 Y108.670 E0.02260
G1 X128.434 Y109.234 E0.02621
G1 X127.833 Y109.656 E0.02301
G1 X127.161 Y110.004 E0.02374
G1 X126.563 Y110.222 E0.01997
G1 X125.835 Y110.386 E0.02338
G1 X125.081 Y110.450 E0.02373
G1 X124.422 Y110.420 E0.02068
G1 X123.763 Y110.308 E0.02097
G1 X122.942 Y110.047 E0.02703
G1 X122.359 Y109.768 E0.02026
G1 X121.824 Y109.429 E0.01986
G1 X121.168 Y108.876 E0.02690
