; generated by PrusaSlicer 2.3.1+win64 on 2023-01-15 at 15:46:12 UTC

; 

; external perimeters extrusion width = 0.60mm
; perimeters extrusion width = 0.50mm
; infill extrusion width = 0.50mm
; solid infill extrusion width = 0.50mm
; top infill extrusion width = 0.45mm
; support material extrusion width = 0.38mm
; first layer extrusion width = 0.42mm

M73 P0 R98
M73 Q0 S98
M201 X1000 Y1000 Z200 E5000 ; sets maximum accelerations, mm/sec^2
M203 X200 Y200 Z12 E120 ; sets maximum feedrates, mm/sec
M204 P1250 R1250 T1250 ; sets acceleration (P, T) and retract acceleration (R), mm/sec^2
M205 X8.00 Y8.00 Z0.40 E4.50 ; sets the jerk limits, mm/sec
M205 S0 T0 ; sets the minimum extruding and travel feed rate, mm/sec
M107
;TYPE:Custom
M862.3 P "MK3S" ; printer model check
M862.1 P0.4 ; nozzle diameter check
M115 U3.9.3 ; tell printer latest fw version
G90 ; use absolute coordinates
M83 ; extruder relative mode
M104 S215 ; set extruder temp
M140 S68 ; set bed temp
M190 S68 ; wait for bed temp
M109 S215 ; wait for extruder temp
G28 W ; home all without mesh bed level
G80 ; mesh bed leveling
G1 Y-3.0 F1000.0 ; go outside print area
G92 E0.0
G1 X60.0 E9.0 F1000.0 ; intro line
G1 X100.0 E12.5 F1000.0 ; intro line
G92 E0.0
M221 S95

; Don't change E values below. Excessive value can damage the printer.

M907 E538 ; set extruder motor current
G21 ; set units to millimeters
G90 ; use absolute coordinates
M83 ; use relative distances for extrusion
M900 K0.05 ; Filament gcode LA 1.5
M900 K30 ; Filament gcode LA 1.0
;LAYER_CHANGE
;Z:0.2
;HEIGHT:0.2
;BEFORE_LAYER_CHANGE
G92 E0.0
;0.2


G1 E-0.80000 F2100.000
G1 Z0.400 F10800.000
;AFTER_LAYER_CHANGE
;0.2
; printing object face.stl id:0 copy 0
G1 X67.871 Y103.444
G1 Z0.200
G1 E0.80000 F2100.000
M204 S1000
;TYPE:Support material
;WIDTH:0.42
G1 F1200.000
G1 X67.871 Y92.123 E0.35495
G1 X68.221 Y91.754 E0.01595
G1 X68.626 Y91.453 E0.01580
G1 X68.626 Y103.858 E0.38894
G1 X68.934 Y104.038 E0.01118
G1 X69.380 Y104.217 E0.01507
G1 X69.380 Y91.095 E0.41143
G1 X69.746 Y90.996 E0.01191
G1 X70.134 Y90.944 E0.01226
G1 X70.134 Y104.367 E0.42087
G1 X70.604 Y104.372 E0.01473
G1 X70.888 Y104.335 E0.00900
G1 X70.888 Y90.977 E0.41883
G1 X71.030 Y90.996 E0.00450
G1 X71.446 Y91.108 E0.01350
G1 X71.642 Y91.190 E0.00667
G1 X71.642 Y104.121 E0.40546
G1 X71.843 Y104.038 E0.00683
G1 X72.215 Y103.821 E0.01350
G1 X72.396 Y103.680 E0.00719
G1 X72.396 Y91.631 E0.37779
G1 X72.555 Y91.754 E0.00631
G1 X72.858 Y92.061 E0.01350
G1 X73.151 Y92.462 E0.01558
G1 X73.151 Y103.145 E0.33495
;WIPE_START
G1 F8640.000
G1 X73.151 Y99.854 E-0.76000
;WIPE_END
G1 E-0.04000 F2100.000
G1 Z0.600 F10800.000
G1 X112.367 Y56.677
G1 Z0.200
G1 E0.80000 F2100.000
G1 F1200.000
G1 X112.367 Y44.664 E0.37665
G1 X113.121 Y44.664 E0.02365
G1 X113.121 Y56.507 E0.37133
G1 X113.875 Y56.507 E0.02365
G1 X113.875 Y44.664 E0.37133
G1 X114.624 Y44.664 E0.02347
G1 X114.624 Y42.348 E0.07260
G1 X114.629 Y56.507 E0.44393
G1 X115.383 Y56.507 E0.02365
G1 X115.383 Y42.348 E0.44393
G1 X116.138 Y42.348 E0.02365
G1 X116.138 Y56.507 E0.44393
G1 X116.892 Y56.507 E0.02365
G1 X116.892 Y42.348 E0.44393
G1 X117.646 Y42.348 E0.02365
G1 X117.646 Y56.507 E0.44393
G1 X118.400 Y56.507 E0.02365
G1 X118.400 Y42.348 E0.44393
G1 X119.154 Y42.348 E0.02365
G1 X119.154 Y56.507 E0.44393
G1 X119.908 Y56.507 E0.02365
G1 X119.908 Y42.348 E0.44393
G1 X120.663 Y42.348 E0.02365
G1 X120.663 Y56.507 E0.44393
G1 X121.417 Y56.507 E0.02365
G1 X121.417 Y42.348 E0.44393
G1 X122.171 Y42.348 E0.02365
G1 X122.171 Y56.507 E0.44393
G1 X122.925 Y56.507 E0.02365
G1 X122.925 Y42.348 E0.44393
G1 X123.679 Y42.348 E0.02365
G1 X123.679 Y56.507 E0.44393
G1 X124.433 Y56.507 E0.02365
G1 X124.433 Y42.348 E0.44393
M73 P0 R97
G1 X125.188 Y42.348 E0.02365
G1 X125.188 Y56.507 E0.44393
G1 X125.942 Y56.507 E0.02365
G1 X125.942 Y42.348 E0.44393
G1 X126.696 Y42.348 E0.02365
G1 X126.696 Y56.507 E0.44393
G1 X127.450 Y56.507 E0.02365
G1 X127.450 Y42.348 E0.44393
G1 X127.509 Y42.348 E0.00184
G1 X127.509 Y44.664 E0.07260
G1 X128.204 Y44.664 E0.02180
G1 X128.204 Y56.507 E0.37133
G1 X128.958 Y56.507 E0.02365
G1 X128.958 Y44.664 E0.37133
G1 X129.712 Y44.664 E0.02365
G1 X129.712 Y56.677 E0.37665
;WIPE_START
G1 F8640.000
G1 X129.712 Y53.385 E-0.76000
;WIPE_END
G1 E-0.04000 F2100.000
G1 Z0.600 F10800.000
G1 X118.721 Y97.380
G1 Z0.200
G1 E0.80000 F2100.000
;TYPE:Perimeter
G1 F1200.000
G1 X119.458 Y97.619 E0.02428
G1 X120.154 Y97.958 E0.02428
G1 X120.796 Y98.391 E0.02428
G1 X121.371 Y98.910 E0.02428
G1 X121.869 Y99.503 E0.02428
G1 X122.280 Y100.160 E0.02428
G1 X122.595 Y100.867 E0.02428
G1 X122.808 Y101.612 E0.02428
G1 X122.916 Y102.378 E0.02428
G1 X122.916 Y103.153 E0.02428
G1 X122.808 Y103.920 E0.02428
G1 X122.595 Y104.664 E0.02428
G1 X122.280 Y105.372 E0.02428
G1 X121.869 Y106.028 E0.02428
G1 X121.371 Y106.622 E0.02428
G1 X120.796 Y107.140 E0.02428
G1 X120.154 Y107.573 E0.02428
G1 X119.458 Y107.912 E0.02428
G1 X118.721 Y108.152 E0.02428
G1 X117.959 Y108.286 E0.02428
G1 X117.185 Y108.313 E0.02428
G1 X116.414 Y108.232 E0.02428
G1 X115.663 Y108.045 E0.02428
G1 X114.945 Y107.755 E0.02428
G1 X114.274 Y107.368 E0.02428
G1 X113.664 Y106.891 E0.02428
G1 X113.122 Y106.329 E0.02448
G1 X112.658 Y105.683 E0.02495
G1 X112.307 Y105.023 E0.02341
G1 X112.042 Y104.296 E0.02428
G1 X111.881 Y103.538 E0.02428
G1 X111.827 Y102.766 E0.02428
G1 X111.881 Y101.993 E0.02428
G1 X112.042 Y101.236 E0.02428
G1 X112.307 Y100.508 E0.02428
G1 X112.671 Y99.824 E0.02428
G1 X113.126 Y99.198 E0.02428
G1 X113.664 Y98.640 E0.02428
G1 X114.274 Y98.164 E0.02428
G1 X114.945 Y97.776 E0.02428
G1 X115.669 Y97.484 E0.02448
G1 X116.442 Y97.296 E0.02495
G1 X117.185 Y97.218 E0.02341
G1 X117.959 Y97.245 E0.02428
G1 X118.662 Y97.369 E0.02240
G1 X118.597 Y97.740 F10800.000
G1 F1200.000
G1 X119.316 Y97.969 E0.02367
G1 X119.965 Y98.286 E0.02263
G1 X120.563 Y98.689 E0.02263
G1 X121.100 Y99.172 E0.02263
G1 X121.563 Y99.725 E0.02263
G1 X121.946 Y100.337 E0.02263
G1 X122.239 Y100.996 E0.02263
G1 X122.438 Y101.690 E0.02263
G1 X122.539 Y102.405 E0.02263
G1 X122.539 Y103.127 E0.02263
G1 X122.438 Y103.841 E0.02263
G1 X122.239 Y104.535 E0.02263
G1 X121.946 Y105.194 E0.02263
G1 X121.563 Y105.806 E0.02263
G1 X121.100 Y106.359 E0.02263
G1 X120.563 Y106.842 E0.02263
G1 X119.965 Y107.246 E0.02263
G1 X119.316 Y107.562 E0.02263
G1 X118.630 Y107.785 E0.02263
G1 X117.919 Y107.910 E0.02263
G1 X117.198 Y107.936 E0.02263
G1 X116.480 Y107.860 E0.02263
G1 X115.780 Y107.685 E0.02263
G1 X115.111 Y107.415 E0.02263
G1 X114.486 Y107.054 E0.02263
G1 X113.917 Y106.610 E0.02263
G1 X113.412 Y106.087 E0.02279
G1 X112.979 Y105.483 E0.02330
G1 X112.653 Y104.870 E0.02179
G1 X112.406 Y104.192 E0.02263
G1 X112.256 Y103.486 E0.02263
G1 X112.205 Y102.766 E0.02263
G1 X112.256 Y102.046 E0.02263
G1 X112.406 Y101.340 E0.02263
G1 X112.653 Y100.662 E0.02263
G1 X112.991 Y100.024 E0.02263
G1 X113.416 Y99.441 E0.02263
G1 X113.917 Y98.921 E0.02263
G1 X114.486 Y98.477 E0.02263
G1 X115.111 Y98.116 E0.02263
G1 X115.785 Y97.844 E0.02279
G1 X116.507 Y97.668 E0.02330
G1 X117.198 Y97.596 E0.02179
G1 X117.919 Y97.621 E0.02263
G1 X118.538 Y97.730 E0.01969
G1 X118.472 Y98.101 F10800.000
G1 F1200.000
G1 X119.175 Y98.320 E0.02307
G1 X119.776 Y98.613 E0.02097
G1 X120.330 Y98.987 E0.02097
G1 X120.828 Y99.435 E0.02097
G1 X121.258 Y99.947 E0.02098
G1 X121.612 Y100.515 E0.02097
G1 X121.884 Y101.126 E0.02097
G1 X122.069 Y101.769 E0.02097
G1 X122.162 Y102.431 E0.02097
G1 X122.162 Y103.100 E0.02097
G1 X122.069 Y103.763 E0.02097
G1 X121.884 Y104.406 E0.02097
G1 X121.612 Y105.017 E0.02097
G1 X121.258 Y105.584 E0.02097
G1 X120.828 Y106.097 E0.02098
G1 X120.330 Y106.544 E0.02097
G1 X119.776 Y106.918 E0.02097
G1 X119.175 Y107.212 E0.02097
G1 X118.538 Y107.418 E0.02097
G1 X117.880 Y107.534 E0.02098
G1 X117.211 Y107.558 E0.02097
G1 X116.546 Y107.488 E0.02097
G1 X115.897 Y107.326 E0.02098
G1 X115.276 Y107.075 E0.02098
G1 X114.697 Y106.741 E0.02097
G1 X114.170 Y106.329 E0.02097
G1 X113.702 Y105.845 E0.02110
G1 X113.300 Y105.284 E0.02164
G1 X112.998 Y104.716 E0.02017
G1 X112.769 Y104.087 E0.02097
G1 X112.630 Y103.433 E0.02098
G1 X112.583 Y102.766 E0.02097
G1 X112.630 Y102.098 E0.02098
G1 X112.769 Y101.444 E0.02098
G1 X112.998 Y100.815 E0.02097
G1 X113.312 Y100.225 E0.02097
G1 X113.705 Y99.684 E0.02097
G1 X114.170 Y99.202 E0.02097
G1 X114.697 Y98.790 E0.02098
G1 X115.276 Y98.456 E0.02097
G1 X115.900 Y98.204 E0.02110
G1 X116.571 Y98.041 E0.02164
G1 X117.211 Y97.974 E0.02017
G1 X117.880 Y97.997 E0.02097
G1 X118.413 Y98.091 E0.01699
G1 X118.348 Y98.462 F10800.000
G1 F1200.000
G1 X119.033 Y98.670 E0.02246
G1 X119.587 Y98.940 E0.01932
G1 X120.098 Y99.285 E0.01932
G1 X120.556 Y99.697 E0.01932
G1 X120.952 Y100.169 E0.01932
G1 X121.278 Y100.692 E0.01932
G1 X121.529 Y101.255 E0.01932
G1 X121.699 Y101.847 E0.01932
G1 X121.785 Y102.458 E0.01932
G1 X121.785 Y103.074 E0.01932
G1 X121.699 Y103.684 E0.01932
G1 X121.529 Y104.276 E0.01932
G1 X121.278 Y104.839 E0.01932
G1 X120.952 Y105.362 E0.01932
G1 X120.556 Y105.834 E0.01932
G1 X120.098 Y106.246 E0.01932
G1 X119.587 Y106.591 E0.01932
G1 X119.033 Y106.861 E0.01932
G1 X118.447 Y107.051 E0.01932
G1 X117.840 Y107.158 E0.01932
G1 X117.224 Y107.180 E0.01932
G1 X116.611 Y107.116 E0.01932
G1 X116.013 Y106.966 E0.01932
G1 X115.442 Y106.736 E0.01932
G1 X114.908 Y106.428 E0.01932
G1 X114.423 Y106.048 E0.01932
G1 X113.993 Y105.603 E0.01941
G1 X113.621 Y105.085 E0.01999
G1 X113.343 Y104.562 E0.01856
G1 X113.132 Y103.983 E0.01932
G1 X113.004 Y103.380 E0.01932
G1 X112.961 Y102.766 E0.01932
G1 X113.004 Y102.151 E0.01932
G1 X113.132 Y101.548 E0.01932
G1 X113.343 Y100.969 E0.01932
G1 X113.633 Y100.425 E0.01932
G1 X113.995 Y99.926 E0.01932
G1 X114.423 Y99.483 E0.01932
G1 X114.908 Y99.104 E0.01932
G1 X115.442 Y98.796 E0.01932
G1 X116.016 Y98.564 E0.01941
G1 X116.636 Y98.413 E0.01999
G1 X117.224 Y98.351 E0.01856
G1 X117.840 Y98.373 E0.01932
G1 X118.289 Y98.452 E0.01428
G1 X118.223 Y98.823 F10800.000
G1 F1200.000
G1 X118.356 Y98.847 E0.00422
G1 X118.891 Y99.021 E0.01767
G1 X119.398 Y99.268 E0.01767
G1 X119.865 Y99.583 E0.01767
G1 X120.284 Y99.960 E0.01767
G1 X120.646 Y100.392 E0.01767
G1 X120.945 Y100.869 E0.01767
G1 X121.174 Y101.384 E0.01767
G1 X121.329 Y101.926 E0.01767
G1 X121.408 Y102.484 E0.01767
G1 X121.408 Y103.047 E0.01767
G1 X121.329 Y103.605 E0.01767
G1 X121.174 Y104.147 E0.01767
G1 X120.945 Y104.662 E0.01767
G1 X120.646 Y105.140 E0.01767
G1 X120.284 Y105.571 E0.01767
G1 X119.865 Y105.948 E0.01767
G1 X119.398 Y106.264 E0.01767
G1 X118.891 Y106.511 E0.01767
G1 X118.356 Y106.685 E0.01767
G1 X117.801 Y106.783 E0.01767
G1 X117.237 Y106.802 E0.01767
G1 X116.677 Y106.743 E0.01767
G1 X116.130 Y106.607 E0.01767
G1 X115.608 Y106.396 E0.01767
G1 X115.120 Y106.114 E0.01767
G1 X114.676 Y105.767 E0.01767
G1 X114.283 Y105.361 E0.01772
G1 X113.942 Y104.885 E0.01834
G1 X113.689 Y104.408 E0.01694
G1 X113.496 Y103.879 E0.01767
G1 X113.379 Y103.328 E0.01767
G1 X113.339 Y102.766 E0.01767
G1 X113.379 Y102.204 E0.01767
G1 X113.496 Y101.652 E0.01767
G1 X113.689 Y101.123 E0.01767
G1 X113.953 Y100.625 E0.01767
G1 X114.284 Y100.169 E0.01767
G1 X114.676 Y99.764 E0.01767
G1 X115.120 Y99.417 E0.01767
G1 X115.608 Y99.135 E0.01767
G1 X116.132 Y98.924 E0.01772
G1 X116.700 Y98.786 E0.01834
G1 X117.237 Y98.729 E0.01694
G1 X117.801 Y98.749 E0.01767
G1 X118.164 Y98.813 E0.01157
G1 X118.264 Y99.213 F10800.000
;TYPE:External perimeter
G1 F1200.000
G1 X118.750 Y99.371 E0.01601
G1 X119.209 Y99.595 E0.01601
G1 X119.632 Y99.881 E0.01601
G1 X120.012 Y100.223 E0.01601
G1 X120.340 Y100.614 E0.01601
G1 X120.611 Y101.047 E0.01601
G1 X120.819 Y101.514 E0.01601
G1 X120.959 Y102.005 E0.01601
G1 X121.030 Y102.510 E0.01601
G1 X121.030 Y103.021 E0.01601
G1 X120.959 Y103.527 E0.01601
G1 X120.819 Y104.018 E0.01601
G1 X120.611 Y104.484 E0.01601
G1 X120.340 Y104.918 E0.01601
G1 X120.012 Y105.309 E0.01601
G1 X119.632 Y105.651 E0.01601
G1 X119.209 Y105.936 E0.01601
G1 X118.750 Y106.160 E0.01601
G1 X118.264 Y106.318 E0.01601
G1 X117.761 Y106.407 E0.01601
G1 X117.251 Y106.424 E0.01601
G1 X116.743 Y106.371 E0.01601
G1 X116.247 Y106.247 E0.01601
G1 X115.774 Y106.056 E0.01601
G1 X115.331 Y105.801 E0.01601
G1 X114.929 Y105.486 E0.01601
G1 X114.573 Y105.118 E0.01603
G1 X114.263 Y104.686 E0.01668
G1 X114.034 Y104.255 E0.01532
G1 X113.859 Y103.775 E0.01601
G1 X113.753 Y103.275 E0.01601
G1 X113.717 Y102.766 E0.01601
G1 X113.753 Y102.256 E0.01601
G1 X113.859 Y101.757 E0.01601
G1 X114.034 Y101.277 E0.01601
G1 X114.274 Y100.826 E0.01601
G1 X114.574 Y100.412 E0.01601
G1 X114.929 Y100.045 E0.01601
G1 X115.331 Y99.731 E0.01601
G1 X115.774 Y99.475 E0.01601
G1 X116.248 Y99.284 E0.01603
G1 X116.765 Y99.158 E0.01668
G1 X117.251 Y99.107 E0.01532
G1 X117.761 Y99.125 E0.01601
G1 X118.205 Y99.203 E0.01413
G1 X118.542 Y98.926 F10800.000
;WIPE_START
G1 F8640.000
G1 X118.750 Y99.371 E-0.13167
G1 X119.209 Y99.595 E-0.11793
G1 X119.632 Y99.881 E-0.11794
G1 X120.012 Y100.223 E-0.11794
G1 X120.340 Y100.614 E-0.11794
G1 X120.611 Y101.047 E-0.11793
G1 X120.679 Y101.200 E-0.03866
;WIPE_END
G1 E-0.04000 F2100.000
G1 Z0.600 F10800.000
G1 X129.661 Y101.993
G1 Z0.200
G1 E0.80000 F2100.000
;TYPE:Perimeter
G1 F1200.000
G1 X129.822 Y101.236 E0.02428
G1 X130.087 Y100.508 E0.02428
G1 X130.451 Y99.824 E0.02428
G1 X130.906 Y99.198 E0.02428
G1 X131.444 Y98.640 E0.02428
G1 X132.054 Y98.164 E0.02428
G1 X132.725 Y97.776 E0.02428
G1 X133.449 Y97.484 E0.02448
G1 X134.222 Y97.296 E0.02495
G1 X134.965 Y97.218 E0.02341
G1 X135.739 Y97.245 E0.02428
G1 X136.501 Y97.380 E0.02428
G1 X137.238 Y97.619 E0.02428
G1 X137.934 Y97.958 E0.02428
G1 X138.581 Y98.395 E0.02448
G1 X139.169 Y98.931 E0.02495
G1 X139.649 Y99.503 E0.02341
G1 X140.063 Y100.165 E0.02448
G1 X140.382 Y100.894 E0.02495
G1 X140.588 Y101.612 E0.02341
G1 X140.696 Y102.378 E0.02428
G1 X140.696 Y103.153 E0.02428
G1 X140.588 Y103.920 E0.02428
G1 X140.375 Y104.664 E0.02428
G1 X140.060 Y105.372 E0.02428
G1 X139.649 Y106.028 E0.02428
G1 X139.151 Y106.622 E0.02428
G1 X138.576 Y107.140 E0.02428
G1 X137.934 Y107.573 E0.02428
G1 X137.238 Y107.912 E0.02428
G1 X136.501 Y108.152 E0.02428
G1 X135.739 Y108.286 E0.02428
G1 X134.965 Y108.313 E0.02428
G1 X134.194 Y108.232 E0.02428
G1 X133.443 Y108.045 E0.02428
G1 X132.725 Y107.755 E0.02428
G1 X132.054 Y107.368 E0.02428
G1 X131.444 Y106.891 E0.02428
G1 X130.906 Y106.334 E0.02428
G1 X130.451 Y105.707 E0.02428
G1 X130.087 Y105.023 E0.02428
G1 X129.822 Y104.296 E0.02428
G1 X129.661 Y103.538 E0.02428
G1 X129.607 Y102.766 E0.02428
G1 X129.657 Y102.053 E0.02240
G1 X130.033 Y102.079 F10800.000
G1 F1200.000
G1 X130.186 Y101.340 E0.02367
G1 X130.433 Y100.662 E0.02263
G1 X130.771 Y100.024 E0.02263
G1 X131.196 Y99.441 E0.02263
G1 X131.697 Y98.921 E0.02263
G1 X132.266 Y98.477 E0.02263
G1 X132.891 Y98.116 E0.02263
G1 X133.565 Y97.844 E0.02279
G1 X134.287 Y97.668 E0.02330
G1 X134.978 Y97.596 E0.02179
G1 X135.699 Y97.621 E0.02263
G1 X136.410 Y97.746 E0.02263
G1 X137.096 Y97.969 E0.02263
G1 X137.745 Y98.286 E0.02263
G1 X138.347 Y98.692 E0.02279
G1 X138.897 Y99.193 E0.02330
G1 X139.343 Y99.725 E0.02179
G1 X139.729 Y100.341 E0.02279
G1 X140.027 Y101.022 E0.02330
G1 X140.218 Y101.690 E0.02179
G1 X140.319 Y102.405 E0.02263
G1 X140.319 Y103.127 E0.02263
G1 X140.218 Y103.841 E0.02263
G1 X140.019 Y104.535 E0.02263
G1 X139.726 Y105.194 E0.02263
G1 X139.343 Y105.806 E0.02263
G1 X138.880 Y106.359 E0.02263
G1 X138.343 Y106.842 E0.02263
G1 X137.745 Y107.246 E0.02263
G1 X137.096 Y107.562 E0.02263
G1 X136.410 Y107.785 E0.02263
G1 X135.699 Y107.910 E0.02263
G1 X134.978 Y107.936 E0.02263
G1 X134.260 Y107.860 E0.02263
G1 X133.560 Y107.685 E0.02263
G1 X132.891 Y107.415 E0.02263
G1 X132.266 Y107.054 E0.02263
G1 X131.697 Y106.610 E0.02263
G1 X131.196 Y106.091 E0.02263
G1 X130.771 Y105.507 E0.02263
G1 X130.433 Y104.870 E0.02263
G1 X130.186 Y104.192 E0.02263
G1 X130.036 Y103.486 E0.02263
G1 X129.985 Y102.766 E0.02263
G1 X130.029 Y102.139 E0.01969
G1 X130.405 Y102.165 F10800.000
G1 F1200.000
G1 X130.549 Y101.444 E0.02306
G1 X130.778 Y100.815 E0.02098
G1 X131.092 Y100.225 E0.02098
G1 X131.485 Y99.684 E0.02097
G1 X131.950 Y99.202 E0.02097
G1 X132.477 Y98.790 E0.02098
