; generated by PrusaSlicer 2.3.1+win64 on 2022-02-04 at 21:25:09 UTC

; 

; external perimeters extrusion width = 0.60mm
; perimeters extrusion width = 0.50mm
; infill extrusion width = 0.50mm
; solid infill extrusion width = 0.50mm
; top infill extrusion width = 0.45mm
; support material extrusion width = 0.38mm
; first layer extrusion width = 0.42mm

M73 P0 R35
M73 Q0 S35
M201 X1000 Y1000 Z200 E5000 ; sets maximum accelerations, mm/sec^2
M203 X200 Y200 Z12 E120 ; sets maximum feedrates, mm/sec
M204 P1250 R1250 T1250 ; sets acceleration (P, T) and retract acceleration (R), mm/sec^2
M205 X8.00 Y8.00 Z0.40 E4.50 ; sets the jerk limits, mm/sec
M205 S0 T0 ; sets the minimum extruding and travel feed rate, mm/sec
M107
;TYPE:Custom
M862.3 P "MK3S" ; printer model check
M862.1 P0.4 ; nozzle diameter check
M115 U3.9.3 ; tell printer latest fw version
G90 ; use absolute coordinates
M83 ; extruder relative mode
M104 S215 ; set extruder temp
M140 S68 ; set bed temp
M190 S68 ; wait for bed temp
M109 S215 ; wait for extruder temp
G28 W ; home all without mesh bed level
G80 ; mesh bed leveling
G1 Y-3.0 F1000.0 ; go outside print area
G92 E0.0
G1 X60.0 E9.0 F1000.0 ; intro line
G1 X100.0 E12.5 F1000.0 ; intro line
G92 E0.0
M221 S95

; Don't change E values below. Excessive value can damage the printer.

M907 E538 ; set extruder motor current
G21 ; set units to millimeters
G90 ; use absolute coordinates
M83 ; use relative distances for extrusion
M900 K0.05 ; Filament gcode LA 1.5
M900 K30 ; Filament gcode LA 1.0
;LAYER_CHANGE
;Z:0.2
;HEIGHT:0.2
;BEFORE_LAYER_CHANGE
G92 E0.0
;0.2


G1 E-0.80000 F2100.000
G1 Z0.400 F10800.000
;AFTER_LAYER_CHANGE
;0.2
G1 X128.608 Y93.115
G1 Z0.200
G1 E0.80000 F2100.000
M204 S1000
;TYPE:Skirt
;WIDTH:0.42
G1 F1200.000
G1 X115.291 Y93.115 E0.41757
M73 P0 R34
G1 X114.318 Y92.863 E0.03149
G1 X113.471 Y92.342 E0.03119
G1 X112.941 Y91.812 E0.02350
G1 X112.614 Y91.381 E0.01695
G1 X112.146 Y89.988 E0.04607
G1 X112.146 Y71.095 E0.59237
G1 X112.399 Y70.123 E0.03149
G1 X112.920 Y69.276 E0.03119
G1 X113.450 Y68.745 E0.02350
G1 X113.880 Y68.418 E0.01695
G1 X115.274 Y67.951 E0.04607
G1 X128.636 Y67.951 E0.41897
G1 X128.659 Y67.354 E0.01873
G1 X128.932 Y66.511 E0.02778
G1 X129.335 Y65.872 E0.02368
G1 X129.971 Y65.230 E0.02833
G1 X130.799 Y64.727 E0.03039
G1 X131.797 Y64.475 E0.03226
G1 X132.602 Y64.486 E0.02527
G1 X132.831 Y64.459 E0.00722
G1 X156.930 Y64.459 E0.75560
G1 X158.502 Y64.988 E0.05203
G1 X159.023 Y65.396 E0.02074
G1 X159.694 Y66.150 E0.03164
G1 X160.029 Y66.802 E0.02298
G1 X160.293 Y67.845 E0.03376
G1 X160.293 Y93.300 E0.79811
M73 Q0 S34
G1 X160.017 Y94.326 E0.03331
G1 X159.473 Y95.170 E0.03150
G1 X158.518 Y95.998 E0.03965
G1 X157.794 Y96.314 E0.02476
G1 X157.060 Y96.447 E0.02338
G1 X156.309 Y96.436 E0.02355
G1 X156.081 Y96.464 E0.00721
G1 X151.692 Y96.464 E0.13760
G1 X151.033 Y96.436 E0.02070
G1 X150.802 Y96.464 E0.00729
G1 X138.872 Y96.464 E0.37406
G1 X138.212 Y96.436 E0.02070
G1 X137.981 Y96.464 E0.00729
G1 X131.996 Y96.464 E0.18767
G1 X130.690 Y96.081 E0.04265
G1 X129.903 Y95.543 E0.02989
G1 X129.235 Y94.792 E0.03153
G1 X128.819 Y93.966 E0.02897
G1 X128.623 Y93.174 E0.02561
G1 X129.003 Y92.738 F10800.000
G1 F1200.000
G1 X115.316 Y92.738 E0.42914
G1 X114.443 Y92.506 E0.02831
G1 X113.722 Y92.060 E0.02658
G1 X113.217 Y91.554 E0.02241
G1 X112.933 Y91.179 E0.01477
G1 X112.523 Y89.957 E0.04038
G1 X112.523 Y71.120 E0.59062
G1 X112.756 Y70.248 E0.02831
G1 X113.202 Y69.527 E0.02658
G1 X113.707 Y69.022 E0.02241
G1 X114.083 Y68.737 E0.01477
G1 X115.304 Y68.328 E0.04038
G1 X129.008 Y68.328 E0.42968
G1 X129.027 Y67.442 E0.02778
G1 X129.283 Y66.651 E0.02608
G1 X129.641 Y66.092 E0.02079
G1 X130.189 Y65.538 E0.02442
G1 X130.923 Y65.084 E0.02706
G1 X131.817 Y64.852 E0.02897
G1 X132.624 Y64.864 E0.02531
G1 X132.844 Y64.836 E0.00693
G1 X156.899 Y64.836 E0.75425
G1 X158.297 Y65.306 E0.04623
G1 X158.755 Y65.661 E0.01818
G1 X159.371 Y66.346 E0.02890
G1 X159.669 Y66.918 E0.02022
G1 X159.916 Y67.870 E0.03082
G1 X159.916 Y93.275 E0.79657
G1 X159.683 Y94.149 E0.02835
M73 Q1 S34
G1 X159.203 Y94.906 E0.02809
G1 X158.338 Y95.666 E0.03612
G1 X157.702 Y95.947 E0.02180
G1 X157.046 Y96.070 E0.02091
G1 X156.287 Y96.059 E0.02381
G1 X156.068 Y96.087 E0.00692
G1 X151.709 Y96.087 E0.13669
M73 P1 R34
G1 X151.518 Y96.066 E0.00602
G1 X151.008 Y96.059 E0.01599
G1 X150.789 Y96.087 E0.00692
G1 X138.888 Y96.087 E0.37315
G1 X138.697 Y96.066 E0.00602
G1 X138.187 Y96.059 E0.01599
G1 X137.968 Y96.087 E0.00692
G1 X132.024 Y96.087 E0.18640
G1 X130.828 Y95.729 E0.03914
G1 X130.168 Y95.274 E0.02511
G1 X129.560 Y94.599 E0.02849
G1 X129.166 Y93.817 E0.02746
G1 X129.017 Y93.198 E0.01996
G1 X129.005 Y92.798 E0.01254
G1 X129.376 Y92.361 F10800.000
G1 F1200.000
G1 X115.342 Y92.361 E0.44003
G1 X114.570 Y92.150 E0.02508
G1 X113.974 Y91.778 E0.02203
G1 X113.493 Y91.297 E0.02132
G1 X113.253 Y90.977 E0.01257
G1 X112.900 Y89.927 E0.03472
G1 X112.900 Y71.146 E0.58885
G1 X113.112 Y70.375 E0.02508
G1 X113.484 Y69.779 E0.02203
G1 X113.964 Y69.298 E0.02132
G1 X114.285 Y69.057 E0.01257
G1 X115.335 Y68.705 E0.03472
G1 X129.384 Y68.705 E0.44049
G1 X129.396 Y67.527 E0.03693
G1 X129.615 Y66.831 E0.02290
G1 X129.924 Y66.343 E0.01810
G1 X130.441 Y65.819 E0.02309
G1 X131.048 Y65.441 E0.02241
G1 X131.838 Y65.230 E0.02565
G1 X132.648 Y65.241 E0.02539
G1 X132.857 Y65.213 E0.00661
G1 X156.869 Y65.213 E0.75287
G1 X158.092 Y65.624 E0.04048
G1 X158.488 Y65.928 E0.01564
G1 X159.050 Y66.545 E0.02617
G1 X159.311 Y67.037 E0.01747
G1 X159.539 Y67.895 E0.02783
G1 X159.539 Y93.249 E0.79497
G1 X159.327 Y94.021 E0.02510
G1 X158.933 Y94.642 E0.02306
G1 X158.155 Y95.335 E0.03265
G1 X157.608 Y95.581 E0.01882
G1 X157.032 Y95.692 E0.01839
G1 X156.263 Y95.681 E0.02410
G1 X156.055 Y95.710 E0.00661
G1 X151.720 Y95.710 E0.13590
G1 X151.543 Y95.689 E0.00560
G1 X150.984 Y95.681 E0.01752
G1 X150.776 Y95.710 E0.00661
G1 X138.900 Y95.710 E0.37236
G1 X138.722 Y95.689 E0.00560
G1 X138.164 Y95.681 E0.01752
G1 X137.955 Y95.710 E0.00661
G1 X132.052 Y95.710 E0.18507
G1 X130.967 Y95.377 E0.03558
G1 X130.432 Y95.004 E0.02045
G1 X129.885 Y94.406 E0.02543
G1 X129.513 Y93.668 E0.02590
G1 X129.389 Y93.134 E0.01719
G1 X129.377 Y92.421 E0.02236
G1 X129.750 Y91.984 F10800.000
G1 F1200.000
G1 X115.369 Y91.984 E0.45094
G1 X114.700 Y91.795 E0.02179
G1 X114.226 Y91.497 E0.01755
G1 X113.770 Y91.041 E0.02022
G1 X113.573 Y90.776 E0.01034
G1 X113.277 Y89.896 E0.02911
G1 X113.277 Y71.173 E0.58705
G1 X113.467 Y70.504 E0.02179
G1 X113.765 Y70.031 E0.01755
G1 X114.221 Y69.575 E0.02022
G1 X114.486 Y69.378 E0.01034
G1 X115.365 Y69.082 E0.02911
G1 X129.757 Y69.082 E0.45124
G1 X129.772 Y67.560 E0.04774
G1 X129.948 Y67.009 E0.01810
G1 X130.207 Y66.592 E0.01541
G1 X130.695 Y66.099 E0.02173
G1 X131.176 Y65.797 E0.01783
G1 X131.861 Y65.607 E0.02227
G1 X132.674 Y65.619 E0.02549
G1 X132.871 Y65.590 E0.00626
G1 X156.838 Y65.590 E0.75146
G1 X157.889 Y65.943 E0.03477
G1 X158.223 Y66.196 E0.01314
G1 X158.730 Y66.746 E0.02346
G1 X158.953 Y67.159 E0.01471
G1 X159.162 Y67.921 E0.02477
G1 X159.162 Y93.223 E0.79332
G1 X158.973 Y93.891 E0.02179
G1 X158.661 Y94.380 E0.01818
G1 X157.970 Y95.005 E0.02920
G1 X157.511 Y95.216 E0.01584
G1 X157.017 Y95.315 E0.01581
G1 X156.238 Y95.304 E0.02443
G1 X156.040 Y95.333 E0.00626
G1 X151.733 Y95.333 E0.13506
G1 X151.570 Y95.312 E0.00515
G1 X150.959 Y95.304 E0.01916
G1 X150.761 Y95.333 E0.00627
G1 X138.912 Y95.333 E0.37152
G1 X138.749 Y95.312 E0.00515
G1 X138.138 Y95.304 E0.01916
G1 X137.940 Y95.333 E0.00626
G1 X132.080 Y95.333 E0.18374
G1 X131.156 Y95.050 E0.03029
G1 X130.696 Y94.733 E0.01754
G1 X130.181 Y94.171 E0.02391
G1 X129.876 Y93.561 E0.02137
G1 X129.761 Y93.069 E0.01583
G1 X129.751 Y92.044 E0.03215
G1 X130.126 Y91.607 F10800.000
G1 F1200.000
G1 X115.397 Y91.607 E0.46184
G1 X114.833 Y91.441 E0.01842
G1 X114.478 Y91.216 E0.01318
G1 X114.047 Y90.785 E0.01911
G1 X113.895 Y90.577 E0.00808
G1 X113.655 Y89.865 E0.02354
G1 X113.655 Y71.201 E0.58520
G1 X113.820 Y70.638 E0.01842
G1 X114.046 Y70.283 E0.01318
G1 X114.477 Y69.852 E0.01911
G1 X114.685 Y69.699 E0.00808
G1 X115.396 Y69.459 E0.02354
G1 X130.130 Y69.459 E0.46197
G1 X130.149 Y67.594 E0.05847
G1 X130.298 Y67.152 E0.01464
G1 X130.490 Y66.842 E0.01143
G1 X130.948 Y66.379 E0.02042
G1 X131.308 Y66.151 E0.01335
G1 X131.884 Y65.985 E0.01881
G1 X132.702 Y65.996 E0.02564
G1 X132.887 Y65.967 E0.00589
G1 X134.165 Y65.967 E0.04007
G1 X134.275 Y65.983 E0.00346
G1 X134.384 Y65.967 E0.00346
G1 X135.674 Y65.967 E0.04044
G1 X135.783 Y65.983 E0.00346
G1 X135.892 Y65.967 E0.00346
G1 X141.707 Y65.967 E0.18233
G1 X141.816 Y65.983 E0.00346
G1 X141.925 Y65.967 E0.00346
G1 X143.215 Y65.967 E0.04044
G1 X143.324 Y65.983 E0.00346
G1 X143.434 Y65.967 E0.00346
G1 X144.724 Y65.967 E0.04044
G1 X144.833 Y65.983 E0.00346
G1 X144.942 Y65.967 E0.00346
G1 X146.232 Y65.967 E0.04044
G1 X146.341 Y65.983 E0.00346
G1 X146.450 Y65.967 E0.00346
G1 X147.740 Y65.967 E0.04044
G1 X147.849 Y65.983 E0.00346
G1 X147.959 Y65.967 E0.00346
G1 X149.249 Y65.967 E0.04044
G1 X149.358 Y65.983 E0.00346
G1 X149.467 Y65.967 E0.00346
G1 X150.757 Y65.967 E0.04044
G1 X150.866 Y65.983 E0.00346
G1 X150.975 Y65.967 E0.00346
G1 X152.265 Y65.967 E0.04044
G1 X152.374 Y65.983 E0.00346
G1 X152.484 Y65.967 E0.00346
G1 X153.773 Y65.967 E0.04044
G1 X153.883 Y65.983 E0.00346
G1 X153.992 Y65.967 E0.00346
G1 X155.282 Y65.967 E0.04044
G1 X155.391 Y65.983 E0.00346
G1 X155.500 Y65.967 E0.00346
G1 X156.807 Y65.967 E0.04098
G1 X157.688 Y66.263 E0.02912
G1 X157.960 Y66.467 E0.01066
G1 X158.412 Y66.951 E0.02077
G1 X158.597 Y67.284 E0.01195
G1 X158.785 Y67.948 E0.02162
G1 X158.785 Y93.195 E0.79160
M73 P2 R34
M73 Q2 S34
G1 X158.619 Y93.758 E0.01841
G1 X158.387 Y94.119 E0.01347
G1 X157.782 Y94.677 E0.02581
G1 X157.411 Y94.852 E0.01285
G1 X157.001 Y94.938 E0.01314
G1 X156.210 Y94.926 E0.02480
G1 X156.024 Y94.955 E0.00589
G1 X154.746 Y94.955 E0.04007
G1 X154.637 Y94.939 E0.00346
G1 X154.528 Y94.955 E0.00346
G1 X153.238 Y94.955 E0.04044
G1 X153.129 Y94.939 E0.00346
G1 X153.019 Y94.955 E0.00346
G1 X151.746 Y94.955 E0.03992
G1 X151.598 Y94.936 E0.00467
G1 X150.931 Y94.926 E0.02094
G1 X150.745 Y94.955 E0.00589
G1 X149.467 Y94.955 E0.04007
G1 X149.358 Y94.939 E0.00346
G1 X149.249 Y94.955 E0.00346
G1 X147.959 Y94.955 E0.04044
G1 X147.849 Y94.939 E0.00346
G1 X147.740 Y94.955 E0.00346
G1 X146.450 Y94.955 E0.04044
G1 X146.341 Y94.939 E0.00346
G1 X146.232 Y94.955 E0.00346
G1 X144.942 Y94.955 E0.04044
G1 X144.833 Y94.939 E0.00346
G1 X144.724 Y94.955 E0.00346
G1 X143.434 Y94.955 E0.04044
G1 X143.324 Y94.939 E0.00346
G1 X143.215 Y94.955 E0.00346
G1 X141.925 Y94.955 E0.04044
G1 X141.816 Y94.939 E0.00346
G1 X141.707 Y94.955 E0.00346
G1 X140.417 Y94.955 E0.04044
G1 X140.308 Y94.939 E0.00346
G1 X140.199 Y94.955 E0.00346
G1 X138.925 Y94.955 E0.03992
G1 X138.778 Y94.936 E0.00467
G1 X138.110 Y94.926 E0.02094
G1 X137.924 Y94.955 E0.00589
G1 X136.646 Y94.955 E0.04007
G1 X136.537 Y94.939 E0.00346
G1 X136.428 Y94.955 E0.00346
G1 X135.138 Y94.955 E0.04044
G1 X135.029 Y94.939 E0.00346
G1 X134.920 Y94.955 E0.00346
G1 X133.630 Y94.955 E0.04044
G1 X133.520 Y94.939 E0.00346
G1 X133.411 Y94.955 E0.00346
G1 X132.108 Y94.955 E0.04085
G1 X131.343 Y94.722 E0.02508
G1 X130.958 Y94.462 E0.01457
G1 X130.478 Y93.937 E0.02230
G1 X130.225 Y93.418 E0.01811
G1 X130.134 Y93.009 E0.01315
G1 X130.127 Y91.667 E0.04206
G1 X130.503 Y91.230 F10800.000
G1 F1200.000
G1 X115.426 Y91.230 E0.47273
G1 X114.970 Y91.089 E0.01496
G1 X114.731 Y90.935 E0.00892
G1 X114.325 Y90.529 E0.01800
G1 X114.217 Y90.380 E0.00579
G1 X114.032 Y89.834 E0.01806
G1 X114.032 Y71.231 E0.58330
G1 X114.172 Y70.775 E0.01496
G1 X114.326 Y70.536 E0.00892
G1 X114.732 Y70.130 E0.01800
G1 X114.882 Y70.022 E0.00579
G1 X115.427 Y69.836 E0.01806
G1 X130.504 Y69.836 E0.47270
G1 X130.526 Y67.632 E0.06913
G1 X130.645 Y67.299 E0.01107
G1 X130.773 Y67.092 E0.00764
G1 X131.202 Y66.658 E0.01913
G1 X131.444 Y66.503 E0.00901
G1 X131.909 Y66.362 E0.01525
G1 X132.733 Y66.374 E0.02583
G1 X132.905 Y66.344 E0.00547
G1 X134.146 Y66.344 E0.03891
G1 X134.275 Y66.367 E0.00410
G1 X134.403 Y66.344 E0.00410
G1 X135.654 Y66.344 E0.03923
G1 X135.783 Y66.367 E0.00410
G1 X135.912 Y66.344 E0.00410
G1 X137.163 Y66.344 E0.03923
G1 X137.291 Y66.367 E0.00410
G1 X137.421 Y66.344 E0.00414
G1 X138.694 Y66.348 E0.03989
G1 X138.806 Y66.365 E0.00357
G1 X138.929 Y66.344 E0.00391
G1 X140.179 Y66.344 E0.03920
G1 X140.308 Y66.367 E0.00410
G1 X140.436 Y66.344 E0.00410
G1 X141.688 Y66.344 E0.03923
G1 X141.816 Y66.367 E0.00410
G1 X141.945 Y66.344 E0.00410
G1 X143.196 Y66.344 E0.03923
G1 X143.324 Y66.367 E0.00410
G1 X143.453 Y66.344 E0.00410
G1 X144.704 Y66.344 E0.03923
G1 X144.833 Y66.367 E0.00410
G1 X144.961 Y66.344 E0.00410
G1 X146.213 Y66.344 E0.03923
G1 X146.341 Y66.367 E0.00410
G1 X146.470 Y66.344 E0.00410
G1 X147.721 Y66.344 E0.03923
G1 X147.849 Y66.367 E0.00410
G1 X147.978 Y66.344 E0.00410
G1 X149.229 Y66.344 E0.03923
G1 X149.358 Y66.367 E0.00410
G1 X149.486 Y66.344 E0.00410
G1 X150.737 Y66.344 E0.03923
G1 X150.866 Y66.367 E0.00410
G1 X150.995 Y66.344 E0.00410
G1 X152.246 Y66.344 E0.03923
G1 X152.374 Y66.367 E0.00410
G1 X152.503 Y66.344 E0.00410
G1 X153.754 Y66.344 E0.03923
G1 X153.883 Y66.367 E0.00410
G1 X154.011 Y66.344 E0.00410
G1 X155.262 Y66.344 E0.03923
G1 X155.391 Y66.367 E0.00410
G1 X155.520 Y66.344 E0.00410
G1 X156.776 Y66.344 E0.03941
G1 X157.488 Y66.584 E0.02355
G1 X157.699 Y66.740 E0.00822
G1 X158.097 Y67.159 E0.01812
G1 X158.242 Y67.413 E0.00919
G1 X158.408 Y67.976 E0.01838
G1 X158.408 Y93.165 E0.78979
G1 X158.267 Y93.621 E0.01495
G1 X158.112 Y93.861 E0.00898
G1 X157.593 Y94.349 E0.02233
G1 X157.271 Y94.502 E0.01118
G1 X156.986 Y94.560 E0.00912
G1 X156.179 Y94.549 E0.02532
G1 X156.007 Y94.578 E0.00547
G1 X154.765 Y94.578 E0.03891
G1 X154.637 Y94.556 E0.00410
G1 X154.508 Y94.578 E0.00410
G1 X153.257 Y94.578 E0.03923
G1 X153.129 Y94.556 E0.00410
G1 X153.000 Y94.578 E0.00410
G1 X151.761 Y94.578 E0.03884
G1 X151.630 Y94.559 E0.00416
G1 X150.899 Y94.549 E0.02291
G1 X150.727 Y94.578 E0.00547
G1 X149.486 Y94.578 E0.03891
G1 X149.358 Y94.556 E0.00410
G1 X149.229 Y94.578 E0.00410
G1 X147.978 Y94.578 E0.03923
G1 X147.849 Y94.556 E0.00410
G1 X147.721 Y94.578 E0.00410
G1 X146.470 Y94.578 E0.03923
G1 X146.341 Y94.556 E0.00410
G1 X146.213 Y94.578 E0.00410
G1 X144.961 Y94.578 E0.03923
G1 X144.833 Y94.556 E0.00410
G1 X144.704 Y94.578 E0.00410
G1 X143.453 Y94.578 E0.03923
G1 X143.324 Y94.556 E0.00410
G1 X143.196 Y94.578 E0.00410
G1 X141.945 Y94.578 E0.03923
G1 X141.816 Y94.556 E0.00410
G1 X141.688 Y94.578 E0.00410
G1 X140.436 Y94.578 E0.03923
G1 X140.308 Y94.556 E0.00410
G1 X140.179 Y94.578 E0.00410
G1 X138.940 Y94.578 E0.03884
G1 X138.809 Y94.559 E0.00416
G1 X138.079 Y94.549 E0.02291
G1 X137.907 Y94.578 E0.00547
G1 X136.666 Y94.578 E0.03891
G1 X136.537 Y94.556 E0.00410
G1 X136.408 Y94.578 E0.00410
G1 X135.157 Y94.578 E0.03923
G1 X135.029 Y94.556 E0.00410
G1 X134.900 Y94.578 E0.00410
G1 X133.649 Y94.578 E0.03923
G1 X133.520 Y94.556 E0.00410
G1 X133.392 Y94.578 E0.00410
G1 X132.136 Y94.578 E0.03936
G1 X131.528 Y94.392 E0.01996
G1 X131.217 Y94.187 E0.01168
G1 X130.804 Y93.746 E0.01893
G1 X130.575 Y93.275 E0.01642
G1 X130.507 Y92.952 E0.01035
G1 X130.503 Y91.290 E0.05210
G1 X130.881 Y90.853 F10800.000
G1 F1200.000
G1 X115.458 Y90.853 E0.48358
G1 X115.114 Y90.740 E0.01136
G1 X114.984 Y90.655 E0.00484
G1 X114.604 Y90.275 E0.01686
G1 X114.541 Y90.185 E0.00345
G1 X114.409 Y89.802 E0.01270
G1 X114.409 Y71.262 E0.58131
G1 X114.522 Y70.918 E0.01136
G1 X114.606 Y70.789 E0.00484
G1 X114.987 Y70.409 E0.01686
G1 X115.076 Y70.345 E0.00345
G1 X115.459 Y70.213 E0.01270
G1 X130.880 Y70.213 E0.48350
G1 X130.892 Y67.728 E0.07792
G1 X130.993 Y67.445 E0.00944
G1 X131.057 Y67.342 E0.00379
G1 X131.457 Y66.937 E0.01784
G1 X131.586 Y66.853 E0.00484
G1 X131.937 Y66.740 E0.01155
G1 X132.768 Y66.752 E0.02609
G1 X132.925 Y66.721 E0.00500
G1 X134.122 Y66.721 E0.03754
G1 X134.275 Y66.754 E0.00488
G1 X134.427 Y66.721 E0.00488
G1 X135.631 Y66.721 E0.03774
G1 X135.783 Y66.754 E0.00488
G1 X135.935 Y66.721 E0.00488
G1 X137.139 Y66.721 E0.03774
G1 X137.291 Y66.754 E0.00488
