; generated by PrusaSlicer 2.3.1+win64 on 2022-02-04 at 21:28:38 UTC

; 

; external perimeters extrusion width = 0.45mm
; perimeters extrusion width = 0.45mm
; infill extrusion width = 0.45mm
; solid infill extrusion width = 0.45mm
; top infill extrusion width = 0.40mm
; first layer extrusion width = 0.42mm

M73 P0 R6
M73 Q0 S6
M201 X1000 Y1000 Z200 E5000 ; sets maximum accelerations, mm/sec^2
M203 X200 Y200 Z12 E120 ; sets maximum feedrates, mm/sec
M204 P1250 R1250 T1250 ; sets acceleration (P, T) and retract acceleration (R), mm/sec^2
M205 X8.00 Y8.00 Z0.40 E4.50 ; sets the jerk limits, mm/sec
M205 S0 T0 ; sets the minimum extruding and travel feed rate, mm/sec
M107
;TYPE:Custom
M862.3 P "MK3S" ; printer model check
M862.1 P0.4 ; nozzle diameter check
M115 U3.9.3 ; tell printer latest fw version
G90 ; use absolute coordinates
M83 ; extruder relative mode
M104 S215 ; set extruder temp
M140 S60 ; set bed temp
M190 S60 ; wait for bed temp
M109 S215 ; wait for extruder temp
G28 W ; home all without mesh bed level
G80 ; mesh bed leveling
G1 Y-3.0 F1000.0 ; go outside print area
G92 E0.0
G1 X60.0 E9.0 F1000.0 ; intro line
M73 P1 R6
M73 Q1 S6
G1 X100.0 E12.5 F1000.0 ; intro line
G92 E0.0
M221 S95

; Don't change E values below. Excessive value can damage the printer.
M907 E430 ; set extruder motor current
G21 ; set units to millimeters
G90 ; use absolute coordinates
M83 ; use relative distances for extrusion
M900 K0.05 ; Filament gcode LA 1.5
M900 K30 ; Filament gcode LA 1.0
;LAYER_CHANGE
;Z:0.2
;HEIGHT:0.2
;BEFORE_LAYER_CHANGE
G92 E0.0
;0.2


G1 E-0.80000 F2100.000
G1 Z0.400 F10800.000
;AFTER_LAYER_CHANGE
;0.2
G1 X119.944 Y118.381
M73 Q2 S6
G1 Z0.200
G1 E0.80000 F2100.000
M204 S1000
;TYPE:Skirt
;WIDTH:0.42
G1 F1200.000
G1 X118.654 Y118.706 E0.04169
G1 X110.377 Y118.706 E0.25954
M73 P2 R6
G1 X108.653 Y118.313 E0.05543
G1 X107.056 Y117.423 E0.05732
G1 X106.001 Y116.441 E0.04521
G1 X105.168 Y115.277 E0.04488
G1 X104.638 Y113.973 E0.04413
G1 X104.446 Y112.980 E0.03170
G1 X104.474 Y103.940 E0.28346
G1 X104.914 Y102.463 E0.04831
G1 X105.715 Y101.119 E0.04907
G1 X106.695 Y100.083 E0.04470
G1 X107.829 Y99.276 E0.04363
G1 X109.131 Y98.748 E0.04406
G1 X110.110 Y98.556 E0.03128
G1 X118.564 Y98.511 E0.26506
G1 X119.475 Y98.675 E0.02903
G1 X120.750 Y98.365 E0.04115
G1 X128.918 Y98.365 E0.25608
G1 X129.717 Y98.500 E0.02542
G1 X130.591 Y98.307 E0.02806
G1 X138.798 Y98.311 E0.25732
G1 X140.146 Y98.559 E0.04298
G1 X141.427 Y99.089 E0.04349
G1 X143.093 Y100.432 E0.06709
M73 Q3 S6
G1 X144.284 Y102.219 E0.06733
G1 X144.821 Y104.297 E0.06730
G1 X144.693 Y113.374 E0.28463
M73 P3 R6
G1 X144.195 Y114.785 E0.04691
G1 X143.405 Y116.027 E0.04615
G1 X142.328 Y117.097 E0.04760
G1 X141.054 Y117.906 E0.04732
G1 X138.929 Y118.495 E0.06915
G1 X130.599 Y118.505 E0.26117
G1 X129.918 Y118.363 E0.02181
G1 X129.023 Y118.563 E0.02874
G1 X120.761 Y118.563 E0.25906
G1 X120.002 Y118.394 E0.02437
G1 X119.939 Y117.993 F10800.000
G1 F1200.000
G1 X118.630 Y118.329 E0.04236
G1 X110.399 Y118.329 E0.25810
G1 X108.765 Y117.952 E0.05257
G1 X107.261 Y117.106 E0.05411
G1 X106.296 Y116.205 E0.04140
G1 X105.508 Y115.114 E0.04219
G1 X104.994 Y113.848 E0.04283
G1 X104.823 Y112.963 E0.02827
G1 X104.843 Y104.021 E0.28036
G1 X105.269 Y102.594 E0.04670
G1 X106.027 Y101.331 E0.04620
G1 X106.930 Y100.379 E0.04112
G1 X107.992 Y99.617 E0.04098
M73 Q4 S6
G1 X109.256 Y99.104 E0.04278
G1 X110.130 Y98.933 E0.02792
G1 X118.548 Y98.888 E0.26394
M73 P4 R6
G1 X119.487 Y99.061 E0.02994
G1 X120.774 Y98.742 E0.04157
G1 X128.901 Y98.742 E0.25483
G1 X129.727 Y98.884 E0.02628
G1 X130.612 Y98.684 E0.02845
G1 X138.780 Y98.688 E0.25609
G1 X140.057 Y98.925 E0.04072
G1 X141.256 Y99.427 E0.04077
G1 X142.833 Y100.707 E0.06369
G1 X143.927 Y102.345 E0.06178
G1 X144.444 Y104.318 E0.06394
G1 X144.327 Y113.279 E0.28099
G1 X143.865 Y114.601 E0.04390
G1 X143.098 Y115.806 E0.04479
G1 X142.078 Y116.814 E0.04496
G1 X140.877 Y117.572 E0.04454
G1 X138.903 Y118.118 E0.06420
G1 X130.619 Y118.128 E0.25973
G1 X129.916 Y117.976 E0.02256
G1 X129.002 Y118.186 E0.02940
G1 X120.783 Y118.186 E0.25769
M73 Q5 S6
G1 X119.997 Y118.006 E0.02527
G1 X119.934 Y117.604 F10800.000
G1 F1200.000
G1 X118.606 Y117.952 E0.04305
G1 X110.420 Y117.952 E0.25664
M73 P5 R6
G1 X108.878 Y117.591 E0.04967
G1 X107.467 Y116.790 E0.05087
G1 X106.567 Y115.943 E0.03874
G1 X105.849 Y114.951 E0.03840
G1 X105.351 Y113.723 E0.04154
G1 X105.200 Y112.945 E0.02485
G1 X105.212 Y104.102 E0.27729
G1 X105.605 Y102.767 E0.04361
G1 X106.340 Y101.543 E0.04477
G1 X107.190 Y100.652 E0.03862
G1 X108.155 Y99.958 E0.03725
G1 X109.381 Y99.460 E0.04150
G1 X110.150 Y99.310 E0.02455
G1 X118.531 Y99.265 E0.26281
G1 X119.499 Y99.447 E0.03087
G1 X120.798 Y99.119 E0.04200
G1 X128.885 Y99.119 E0.25356
G1 X129.738 Y99.269 E0.02717
G1 X130.634 Y99.061 E0.02885
G1 X138.762 Y99.065 E0.25484
G1 X139.966 Y99.292 E0.03843
G1 X141.084 Y99.763 E0.03803
G1 X142.572 Y100.980 E0.06026
G1 X143.595 Y102.527 E0.05815
G1 X144.066 Y104.339 E0.05869
G1 X143.960 Y113.185 E0.27740
M73 Q6 S6
G1 X143.535 Y114.419 E0.04092
M73 P6 R6
G1 X142.817 Y115.554 E0.04212
G1 X141.859 Y116.507 E0.04235
G1 X140.699 Y117.239 E0.04301
G1 X138.877 Y117.741 E0.05925
G1 X130.640 Y117.751 E0.25827
G1 X129.914 Y117.589 E0.02334
G1 X128.979 Y117.808 E0.03008
G1 X120.805 Y117.808 E0.25630
G1 X119.992 Y117.618 E0.02618
G1 X119.929 Y117.215 F10800.000
G1 F1200.000
G1 X118.581 Y117.575 E0.04376
G1 X110.443 Y117.575 E0.25515
G1 X108.992 Y117.230 E0.04675
G1 X107.675 Y116.474 E0.04762
G1 X106.840 Y115.681 E0.03611
G1 X106.190 Y114.788 E0.03465
G1 X105.707 Y113.598 E0.04024
G1 X105.577 Y112.927 E0.02144
G1 X105.582 Y104.182 E0.27420
G1 X105.959 Y102.897 E0.04198
G1 X106.651 Y101.757 E0.04183
G1 X107.426 Y100.947 E0.03513
G1 X108.318 Y100.299 E0.03458
G1 X109.506 Y99.816 E0.04020
G1 X110.169 Y99.687 E0.02119
G1 X118.515 Y99.643 E0.26167
G1 X119.511 Y99.834 E0.03181
M73 Q7 S6
G1 X120.822 Y99.496 E0.04243
G1 X128.867 Y99.496 E0.25227
M73 P7 R6
G1 X129.749 Y99.654 E0.02808
G1 X130.657 Y99.438 E0.02926
G1 X138.744 Y99.442 E0.25358
G1 X139.839 Y99.647 E0.03491
G1 X140.912 Y100.100 E0.03653
G1 X142.309 Y101.253 E0.05679
G1 X143.263 Y102.707 E0.05454
G1 X143.689 Y104.360 E0.05350
G1 X143.594 Y113.093 E0.27383
G1 X143.203 Y114.238 E0.03794
G1 X142.535 Y115.302 E0.03940
G1 X141.608 Y116.224 E0.04099
G1 X140.522 Y116.904 E0.04018
G1 X138.852 Y117.364 E0.05433
G1 X130.662 Y117.374 E0.25679
G1 X129.912 Y117.202 E0.02413
G1 X128.957 Y117.431 E0.03080
G1 X120.828 Y117.431 E0.25486
G1 X119.987 Y117.229 E0.02711
G1 X119.925 Y116.825 F10800.000
G1 F1200.000
G1 X118.555 Y117.198 E0.04451
G1 X110.465 Y117.198 E0.25364
G1 X109.108 Y116.871 E0.04378
G1 X107.884 Y116.160 E0.04436
M73 Q8 S6
G1 X107.113 Y115.421 E0.03351
G1 X106.530 Y114.624 E0.03094
G1 X106.063 Y113.474 E0.03893
G1 X105.954 Y112.909 E0.01803
G1 X105.951 Y104.262 E0.27112
M73 P8 R6
G1 X106.314 Y103.028 E0.04033
G1 X106.961 Y101.972 E0.03884
G1 X107.686 Y101.221 E0.03272
G1 X108.482 Y100.639 E0.03090
G1 X109.631 Y100.173 E0.03890
G1 X110.189 Y100.064 E0.01782
G1 X118.498 Y100.020 E0.26051
G1 X119.524 Y100.220 E0.03278
G1 X120.846 Y99.873 E0.04288
G1 X128.850 Y99.873 E0.25094
G1 X129.760 Y100.040 E0.02902
G1 X130.680 Y99.815 E0.02968
G1 X138.726 Y99.819 E0.25229
G1 X139.748 Y100.014 E0.03260
G1 X140.738 Y100.436 E0.03377
G1 X142.047 Y101.524 E0.05336
G1 X142.906 Y102.833 E0.04909
G1 X143.312 Y104.381 E0.05019
G1 X143.227 Y112.999 E0.27023
G1 X142.854 Y114.095 E0.03628
G1 X142.229 Y115.082 E0.03664
G1 X141.359 Y115.941 E0.03832
G1 X140.347 Y116.570 E0.03736
G1 X138.826 Y116.987 E0.04944
G1 X130.684 Y116.997 E0.25529
M73 Q9 S6
G1 X129.910 Y116.813 E0.02494
G1 X128.933 Y117.054 E0.03154
G1 X120.852 Y117.054 E0.25340
M73 P9 R6
G1 X119.983 Y116.840 E0.02805
G1 X119.921 Y116.435 F10800.000
G1 F1200.000
G1 X118.529 Y116.821 E0.04528
G1 X110.489 Y116.821 E0.25210
G1 X109.225 Y116.511 E0.04078
G1 X108.096 Y115.847 E0.04109
G1 X107.386 Y115.161 E0.03095
G1 X106.871 Y114.460 E0.02727
G1 X106.420 Y113.349 E0.03761
G1 X106.331 Y112.891 E0.01462
G1 X106.328 Y104.290 E0.26967
G1 X106.667 Y103.161 E0.03696
G1 X107.271 Y102.189 E0.03589
G1 X107.945 Y101.495 E0.03035
G1 X108.645 Y100.980 E0.02725
G1 X109.756 Y100.529 E0.03758
G1 X110.209 Y100.441 E0.01446
G1 X118.480 Y100.397 E0.25935
G1 X119.536 Y100.608 E0.03376
G1 X120.872 Y100.250 E0.04335
G1 X128.832 Y100.250 E0.24960
G1 X129.772 Y100.426 E0.02999
G1 X130.703 Y100.192 E0.03010
G1 X138.708 Y100.196 E0.25097
M73 Q10 S6
G1 X139.655 Y100.380 E0.03026
G1 X140.563 Y100.771 E0.03100
G1 X141.782 Y101.794 E0.04990
G1 X142.573 Y103.012 E0.04553
G1 X142.934 Y104.403 E0.04505
M73 P10 R6
G1 X142.860 Y112.906 E0.26663
G1 X142.504 Y113.952 E0.03463
G1 X141.948 Y114.830 E0.03259
G1 X141.141 Y115.632 E0.03566
G1 X140.171 Y116.235 E0.03582
G1 X138.801 Y116.610 E0.04455
G1 X130.707 Y116.620 E0.25377
G1 X129.908 Y116.425 E0.02577
G1 X128.909 Y116.677 E0.03231
G1 X120.876 Y116.677 E0.25189
G1 X119.979 Y116.449 E0.02902
G1 X119.917 Y116.044 F10800.000
G1 F1200.000
G1 X118.502 Y116.444 E0.04608
G1 X110.512 Y116.444 E0.25053
G1 X109.344 Y116.152 E0.03774
G1 X108.309 Y115.535 E0.03780
G1 X107.660 Y114.902 E0.02841
G1 X107.211 Y114.296 E0.02365
G1 X106.776 Y113.224 E0.03627
G1 X106.708 Y112.873 E0.01121
G1 X106.705 Y104.319 E0.26820
G1 X107.020 Y103.297 E0.03353
G1 X107.579 Y102.407 E0.03294
G1 X108.204 Y101.769 E0.02801
G1 X108.810 Y101.320 E0.02365
G1 X109.881 Y100.885 E0.03625
G1 X110.228 Y100.818 E0.01109
M73 P10 R5
G1 X118.463 Y100.774 E0.25819
M73 Q11 S6
G1 X119.374 Y100.959 E0.02916
G1 X119.503 Y101.008 E0.00432
G1 X120.897 Y100.627 E0.04532
G1 X128.814 Y100.627 E0.24823
M73 P11 R5
G1 X129.785 Y100.813 E0.03100
G1 X130.728 Y100.569 E0.03052
M73 Q11 S5
G1 X138.689 Y100.573 E0.24961
G1 X139.561 Y100.746 E0.02789
G1 X140.387 Y101.105 E0.02823
G1 X141.517 Y102.064 E0.04647
G1 X142.217 Y103.138 E0.04019
G1 X142.557 Y104.426 E0.04176
G1 X142.493 Y112.815 E0.26306
G1 X142.172 Y113.771 E0.03162
G1 X141.666 Y114.578 E0.02986
G1 X140.891 Y115.349 E0.03428
G1 X139.997 Y115.899 E0.03293
G1 X138.775 Y116.233 E0.03970
G1 X130.730 Y116.242 E0.25223
G1 X129.907 Y116.035 E0.02662
G1 X128.885 Y116.300 E0.03312
G1 X120.900 Y116.300 E0.25035
G1 X119.975 Y116.059 E0.02999
G1 X119.862 Y115.638 F10800.000
G1 F1200.000
G1 X119.729 Y115.705 E0.00465
G1 X118.475 Y116.067 E0.04092
G1 X110.536 Y116.067 E0.24894
G1 X109.465 Y115.794 E0.03464
G1 X108.524 Y115.225 E0.03450
M73 Q12 S5
G1 X107.935 Y114.643 E0.02593
G1 X107.551 Y114.131 E0.02008
G1 X107.132 Y113.099 E0.03491
G1 X107.085 Y112.855 E0.00781
G1 X107.082 Y104.349 E0.26671
M73 P12 R5
G1 X107.372 Y103.435 E0.03004
G1 X107.885 Y102.627 E0.03003
G1 X108.462 Y102.044 E0.02571
G1 X108.975 Y101.660 E0.02008
G1 X110.006 Y101.241 E0.03490
G1 X110.248 Y101.195 E0.00773
G1 X118.444 Y101.151 E0.25700
G1 X119.274 Y101.323 E0.02657
G1 X119.537 Y101.437 E0.00897
G1 X119.744 Y101.327 E0.00735
G1 X120.923 Y101.004 E0.03830
G1 X128.796 Y101.004 E0.24687
G1 X129.608 Y101.160 E0.02592
G1 X129.749 Y101.213 E0.00472
G1 X130.753 Y100.946 E0.03256
G1 X138.669 Y100.950 E0.24822
G1 X139.466 Y101.111 E0.02548
G1 X140.209 Y101.438 E0.02544
G1 X141.250 Y102.331 E0.04302
G1 X141.883 Y103.316 E0.03670
G1 X142.180 Y104.448 E0.03668
G1 X142.126 Y112.725 E0.25954
G1 X141.840 Y113.592 E0.02862
G1 X141.383 Y114.328 E0.02714
G1 X140.674 Y115.040 E0.03151
G1 X139.822 Y115.564 E0.03137
G1 X138.750 Y115.856 E0.03484
G1 X130.755 Y115.865 E0.25068
G1 X129.906 Y115.645 E0.02749
G1 X128.860 Y115.923 E0.03395
G1 X120.926 Y115.923 E0.24877
M73 P13 R5
M73 Q13 S5
G1 X119.920 Y115.654 E0.03265
G1 X119.805 Y115.231 F10800.000
G1 F1200.000
G1 X119.596 Y115.351 E0.00756
G1 X118.448 Y115.690 E0.03753
G1 X110.560 Y115.690 E0.24730
G1 X109.588 Y115.437 E0.03149
G1 X108.741 Y114.916 E0.03119
G1 X108.211 Y114.386 E0.02350
G1 X107.891 Y113.966 E0.01656
G1 X107.489 Y112.975 E0.03352
G1 X107.462 Y112.837 E0.00440
G1 X107.460 Y104.379 E0.26519
G1 X107.722 Y103.577 E0.02647
G1 X108.191 Y102.849 E0.02714
G1 X108.720 Y102.320 E0.02347
G1 X109.140 Y102.000 E0.01656
G1 X110.130 Y101.598 E0.03351
G1 X110.267 Y101.572 E0.00436
G1 X118.426 Y101.528 E0.25581
G1 X119.173 Y101.687 E0.02396
G1 X119.558 Y101.863 E0.01326
G1 X119.872 Y101.683 E0.01136
G1 X120.949 Y101.382 E0.03505
G1 X128.778 Y101.382 E0.24547
G1 X129.513 Y101.525 E0.02350
G1 X129.720 Y101.612 E0.00702
G1 X130.778 Y101.324 E0.03439
G1 X138.650 Y101.327 E0.24680
G1 X139.369 Y101.476 E0.02302
G1 X140.028 Y101.771 E0.02265
G1 X140.983 Y102.598 E0.03960
G1 X141.527 Y103.443 E0.03150
G1 X141.803 Y104.472 E0.03340
G1 X141.758 Y112.637 E0.25603
M73 Q14 S5
G1 X141.506 Y113.415 E0.02563
G1 X141.100 Y114.078 E0.02436
G1 X140.423 Y114.757 E0.03007
G1 X139.649 Y115.228 E0.02841
M73 P14 R5
G1 X138.725 Y115.479 E0.03004
G1 X130.780 Y115.488 E0.24910
G1 X129.906 Y115.254 E0.02838
G1 X128.834 Y115.546 E0.03482
G1 X120.952 Y115.546 E0.24715
G1 X119.863 Y115.247 E0.03541
G1 X119.809 Y114.781 F10800.000
G1 F1200.000
G1 X119.459 Y114.999 E0.01293
G1 X118.420 Y115.313 E0.03405
G1 X110.586 Y115.313 E0.24562
G1 X109.713 Y115.080 E0.02831
G1 X108.992 Y114.634 E0.02658
G1 X108.487 Y114.129 E0.02241
G1 X108.207 Y113.759 E0.01453
G1 X107.839 Y112.819 E0.03165
G1 X107.827 Y104.468 E0.26185
G1 X108.073 Y103.717 E0.02476
G1 X108.471 Y103.102 E0.02299
G1 X108.977 Y102.596 E0.02243
G1 X109.347 Y102.316 E0.01453
G1 X110.286 Y101.948 E0.03163
G1 X118.407 Y101.906 E0.25461
G1 X119.070 Y102.050 E0.02130
G1 X119.580 Y102.293 E0.01772
G1 X120.003 Y102.037 E0.01548
G1 X120.976 Y101.759 E0.03174
G1 X128.759 Y101.759 E0.24402
G1 X129.416 Y101.890 E0.02101
G1 X129.729 Y102.031 E0.01079
G1 X129.871 Y101.962 E0.00495
G1 X130.805 Y101.701 E0.03041
G1 X138.630 Y101.704 E0.24537
M73 P15 R5
M73 Q15 S5
G1 X139.234 Y101.829 E0.01931
G1 X139.848 Y102.103 E0.02110
G1 X140.713 Y102.863 E0.03609
G1 X141.193 Y103.620 E0.02809
G1 X141.426 Y104.495 E0.02840
G1 X141.390 Y112.551 E0.25260
G1 X141.171 Y113.240 E0.02267
G1 X140.815 Y113.829 E0.02158
G1 X140.205 Y114.449 E0.02728
G1 X139.521 Y114.872 E0.02521
G1 X138.698 Y115.101 E0.02679
G1 X130.806 Y115.111 E0.24745
G1 X129.861 Y114.850 E0.03073
G1 X129.741 Y114.908 E0.00417
G1 X128.808 Y115.169 E0.03040
G1 X120.977 Y115.169 E0.24552
G1 X120.067 Y114.919 E0.02958
G1 X119.862 Y114.809 E0.00730
;WIPE_START
G1 F8640.000
G1 X119.459 Y114.999 E-0.10282
G1 X118.420 Y115.313 E-0.25076
G1 X116.659 Y115.313 E-0.40642
;WIPE_END
G1 E-0.04000 F2100.000
G1 Z0.600 F10800.000
G1 X129.849 Y114.416
G1 Z0.200
G1 E0.80000 F2100.000
G1 F1200.000
G1 X129.609 Y114.554 E0.00867
G1 X128.780 Y114.792 E0.02701
G1 X121.004 Y114.792 E0.24384
G1 X120.195 Y114.563 E0.02635
G1 X119.796 Y114.335 E0.01441
G1 X119.320 Y114.647 E0.01785
G1 X118.390 Y114.935 E0.03051
G1 X110.612 Y114.935 E0.24390
G1 X109.840 Y114.724 E0.02508
G1 X109.244 Y114.352 E0.02203
G1 X108.763 Y113.872 E0.02132
G1 X108.525 Y113.554 E0.01245
G1 X108.216 Y112.765 E0.02656
M73 Q16 S5
G1 X108.196 Y104.553 E0.25748
M73 P16 R5
G1 X108.404 Y103.899 E0.02155
G1 X108.753 Y103.354 E0.02029
G1 X109.234 Y102.872 E0.02135
G1 X109.552 Y102.634 E0.01245
G1 X110.341 Y102.325 E0.02656
G1 X118.387 Y102.283 E0.25227
G1 X118.964 Y102.413 E0.01857
G1 X119.604 Y102.726 E0.02233
G1 X120.136 Y102.391 E0.01971
G1 X121.003 Y102.136 E0.02834
G1 X128.739 Y102.136 E0.24254
G1 X129.315 Y102.254 E0.01844
G1 X129.751 Y102.461 E0.01513
G1 X130.003 Y102.316 E0.00913
G1 X130.832 Y102.078 E0.02702
G1 X138.610 Y102.081 E0.24389
G1 X139.134 Y102.193 E0.01680
G1 X139.665 Y102.434 E0.01829
G1 X140.442 Y103.127 E0.03263
G1 X140.837 Y103.747 E0.02306
G1 X141.048 Y104.520 E0.02513
G1 X141.022 Y112.467 E0.24917
G1 X140.835 Y113.068 E0.01973
G1 X140.529 Y113.583 E0.01880
G1 X139.983 Y114.143 E0.02451
G1 X139.390 Y114.518 E0.02201
G1 X138.670 Y114.724 E0.02347
G1 X130.832 Y114.734 E0.24576
G1 X130.012 Y114.500 E0.02674
G1 X129.902 Y114.444 E0.00389
G1 X129.846 Y113.971 F10800.000
G1 F1200.000
G1 X129.473 Y114.201 E0.01372
G1 X128.752 Y114.415 E0.02358
G1 X121.031 Y114.415 E0.24209
M73 Q17 S5
G1 X120.326 Y114.209 E0.02305
