; generated by PrusaSlicer 2.3.1+win64 on 2022-02-03 at 12:19:55 UTC

; 

; external perimeters extrusion width = 0.60mm
; perimeters extrusion width = 0.50mm
; infill extrusion width = 0.50mm
; solid infill extrusion width = 0.50mm
; top infill extrusion width = 0.45mm
; first layer extrusion width = 0.42mm

M73 P0 R43
M73 Q0 S44
M201 X1000 Y1000 Z200 E5000 ; sets maximum accelerations, mm/sec^2
M203 X200 Y200 Z12 E120 ; sets maximum feedrates, mm/sec
M204 P1250 R1250 T1250 ; sets acceleration (P, T) and retract acceleration (R), mm/sec^2
M205 X8.00 Y8.00 Z0.40 E4.50 ; sets the jerk limits, mm/sec
M205 S0 T0 ; sets the minimum extruding and travel feed rate, mm/sec
M107
;TYPE:Custom
M862.3 P "MK3S" ; printer model check
M862.1 P0.4 ; nozzle diameter check
M115 U3.9.3 ; tell printer latest fw version
G90 ; use absolute coordinates
M83 ; extruder relative mode
M104 S215 ; set extruder temp
M140 S67 ; set bed temp
M190 S67 ; wait for bed temp
M109 S215 ; wait for extruder temp
G28 W ; home all without mesh bed level
G80 ; mesh bed leveling
G1 Y-3.0 F1000.0 ; go outside print area
G92 E0.0
G1 X60.0 E9.0 F1000.0 ; intro line
G1 X100.0 E12.5 F1000.0 ; intro line
G92 E0.0
M221 S95

; Don't change E values below. Excessive value can damage the printer.

M907 E538 ; set extruder motor current
G21 ; set units to millimeters
G90 ; use absolute coordinates
M83 ; use relative distances for extrusion
M900 K0.05 ; Filament gcode LA 1.5
M900 K30 ; Filament gcode LA 1.0
;LAYER_CHANGE
;Z:0.2
;HEIGHT:0.2
;BEFORE_LAYER_CHANGE
G92 E0.0
;0.2


G1 E-0.80000 F2100.000
G1 Z0.400 F10800.000
;AFTER_LAYER_CHANGE
;0.2
G1 X63.439 Y72.193
G1 Z0.200
G1 E0.80000 F2100.000
M204 S1000
;TYPE:Skirt
;WIDTH:0.42
G1 F1200.000
G1 X63.542 Y72.176 E0.00327
G1 X70.942 Y72.162 E0.23202
G1 X71.524 Y72.317 E0.01892
G1 X72.092 Y72.582 E0.01964
G1 X73.037 Y73.404 E0.03928
G1 X73.581 Y74.249 E0.03149
G1 X73.857 Y75.276 E0.03334
G1 X73.808 Y113.765 E1.20681
G1 X73.541 Y114.565 E0.02643
G1 X73.081 Y115.271 E0.02644
G1 X72.553 Y115.799 E0.02341
G1 X72.133 Y116.119 E0.01655
G1 X71.109 Y116.531 E0.03460
G1 X71.005 Y116.548 E0.00329
G1 X63.469 Y116.537 E0.23630
G1 X62.826 Y116.326 E0.02120
G1 X62.245 Y115.999 E0.02092
G1 X61.489 Y115.294 E0.03241
G1 X60.978 Y114.496 E0.02973
G1 X60.692 Y113.456 E0.03381
G1 X60.741 Y74.959 E1.20705
G1 X61.008 Y74.159 E0.02643
G1 X61.468 Y73.452 E0.02644
G1 X61.996 Y72.924 E0.02341
G1 X62.416 Y72.604 E0.01655
G1 X63.383 Y72.215 E0.03269
G1 X63.521 Y72.562 F10800.000
G1 F1200.000
G1 X70.869 Y72.532 E0.23036
G1 X71.410 Y72.677 E0.01758
G1 X71.906 Y72.911 E0.01719
G1 X72.767 Y73.669 E0.03595
G1 X73.247 Y74.425 E0.02809
G1 X73.480 Y75.300 E0.02837
G1 X73.431 Y113.732 E1.20502
G1 X73.193 Y114.418 E0.02277
G1 X72.800 Y115.018 E0.02249
G1 X72.296 Y115.523 E0.02239
G1 X71.926 Y115.803 E0.01453
G1 X70.986 Y116.171 E0.03166
G1 X63.558 Y116.170 E0.23288
G1 X62.963 Y115.974 E0.01965
G1 X62.452 Y115.683 E0.01843
G1 X61.764 Y115.035 E0.02962
G1 X61.333 Y114.365 E0.02499
G1 X61.069 Y113.430 E0.03048
G1 X61.118 Y74.992 E1.20520
G1 X61.356 Y74.306 E0.02277
G1 X61.748 Y73.705 E0.02249
G1 X62.253 Y73.200 E0.02239
G1 X62.623 Y72.921 E0.01453
G1 X63.466 Y72.584 E0.02846
G1 X63.603 Y72.935 F10800.000
G1 F1200.000
G1 X70.798 Y72.903 E0.22559
G1 X71.266 Y73.026 E0.01517
G1 X71.720 Y73.240 E0.01575
G1 X72.496 Y73.932 E0.03261
G1 X72.891 Y74.553 E0.02306
G1 X73.102 Y75.325 E0.02511
G1 X73.064 Y113.641 E1.20136
M73 Q0 S43
G1 X72.863 Y114.234 E0.01964
G1 X72.519 Y114.766 E0.01986
G1 X72.039 Y115.247 E0.02131
G1 X71.721 Y115.485 E0.01245
G1 X70.932 Y115.794 E0.02656
G1 X63.647 Y115.802 E0.22842
G1 X63.099 Y115.622 E0.01807
G1 X62.661 Y115.369 E0.01588
G1 X62.040 Y114.778 E0.02686
G1 X61.687 Y114.233 E0.02037
G1 X61.446 Y113.403 E0.02711
G1 X61.485 Y75.083 E1.20149
G1 X61.686 Y74.489 E0.01964
G1 X62.029 Y73.957 E0.01986
G1 X62.510 Y73.477 E0.02131
G1 X62.828 Y73.238 E0.01245
G1 X63.547 Y72.957 E0.02422
G1 X63.681 Y73.308 F10800.000
G1 F1200.000
G1 X63.718 Y73.294 E0.00124
G1 X70.728 Y73.275 E0.21980
G1 X71.122 Y73.375 E0.01272
G1 X71.533 Y73.569 E0.01427
G1 X72.224 Y74.195 E0.02922
G1 X72.536 Y74.683 E0.01818
G1 X72.725 Y75.352 E0.02179
G1 X72.697 Y113.549 E1.19764
G1 X72.513 Y114.091 E0.01793
G1 X72.239 Y114.514 E0.01581
G1 X71.782 Y114.970 E0.02026
G1 X71.518 Y115.167 E0.01032
G1 X70.830 Y115.429 E0.02308
G1 X63.736 Y115.434 E0.22244
M73 P1 R43
G1 X63.237 Y115.271 E0.01647
M73 Q1 S43
G1 X62.872 Y115.056 E0.01327
G1 X62.317 Y114.521 E0.02417
G1 X62.039 Y114.098 E0.01588
G1 X61.823 Y113.374 E0.02367
G1 X61.852 Y75.175 E1.19773
G1 X62.035 Y74.633 E0.01793
G1 X62.310 Y74.210 E0.01581
G1 X62.767 Y73.753 E0.02026
G1 X63.031 Y73.557 E0.01032
G1 X63.625 Y73.330 E0.01995
G1 X63.756 Y73.682 F10800.000
G1 F1200.000
G1 X63.817 Y73.659 E0.00205
G1 X70.662 Y73.646 E0.21460
G1 X70.978 Y73.724 E0.01022
G1 X71.345 Y73.897 E0.01272
G1 X71.950 Y74.455 E0.02580
G1 X72.182 Y74.817 E0.01347
G1 X72.348 Y75.380 E0.01842
G1 X72.329 Y113.461 E1.19400
G1 X72.182 Y113.909 E0.01480
G1 X71.957 Y114.262 E0.01311
G1 X71.526 Y114.693 E0.01912
G1 X71.317 Y114.847 E0.00812
G1 X70.731 Y115.064 E0.01959
G1 X63.825 Y115.067 E0.21654
G1 X63.376 Y114.919 E0.01483
G1 X63.087 Y114.745 E0.01058
G1 X62.595 Y114.265 E0.02156
G1 X62.391 Y113.959 E0.01154
G1 X62.200 Y113.345 E0.02014
G1 X62.219 Y75.263 E1.19404
G1 X62.367 Y74.814 E0.01480
G1 X62.591 Y74.462 E0.01311
G1 X63.023 Y74.030 E0.01912
G1 X63.232 Y73.877 E0.00812
G1 X63.700 Y73.703 E0.01567
G1 X63.429 Y74.199 F10800.000
G1 F1200.000
G1 X63.913 Y74.025 E0.01612
G1 X70.598 Y74.019 E0.20961
G1 X70.837 Y74.074 E0.00766
G1 X71.156 Y74.225 E0.01109
G1 X71.675 Y74.713 E0.02233
G1 X71.830 Y74.954 E0.00898
G1 X71.971 Y75.409 E0.01495
G1 X71.962 Y113.372 E1.19028
M73 P1 R42
G1 X71.831 Y113.769 E0.01310
G1 X71.676 Y114.009 E0.00898
G1 X71.271 Y114.415 E0.01800
G1 X71.119 Y114.524 E0.00584
G1 X70.636 Y114.698 E0.01612
G1 X63.914 Y114.699 E0.21074
G1 X63.516 Y114.568 E0.01314
G1 X63.306 Y114.437 E0.00778
G1 X62.872 Y114.009 E0.01909
G1 X62.740 Y113.815 E0.00738
G1 X62.577 Y113.314 E0.01650
G1 X62.587 Y75.352 E1.19028
G1 X62.717 Y74.955 E0.01310
G1 X62.872 Y74.714 E0.00898
G1 X63.278 Y74.308 E0.01800
G1 X63.381 Y74.234 E0.00396
G1 X63.622 Y74.524 F10800.000
G1 F1200.000
G1 X64.005 Y74.392 E0.01269
G1 X70.576 Y74.396 E0.20603
G1 X70.693 Y74.423 E0.00377
G1 X70.966 Y74.552 E0.00947
G1 X71.397 Y74.969 E0.01880
G1 X71.481 Y75.097 E0.00479
G1 X71.594 Y75.441 E0.01136
G1 X71.594 Y113.283 E1.18649
G1 X71.481 Y113.627 E0.01136
G1 X71.397 Y113.756 E0.00484
G1 X71.016 Y114.136 E0.01686
G1 X70.926 Y114.200 E0.00345
G1 X70.544 Y114.332 E0.01270
G1 X64.004 Y114.332 E0.20505
G1 X63.659 Y114.219 E0.01136
G1 X63.530 Y114.134 E0.00484
G1 X63.150 Y113.754 E0.01686
G1 X63.087 Y113.664 E0.00345
G1 X62.955 Y113.281 E0.01270
G1 X62.955 Y75.441 E1.18644
G1 X63.068 Y75.097 E0.01136
G1 X63.152 Y74.968 E0.00484
G1 X63.573 Y74.559 E0.01841
G1 X63.811 Y74.851 F10800.000
G1 F1200.000
G1 X64.039 Y74.769 E0.00757
G1 X70.524 Y74.769 E0.20334
G1 X70.774 Y74.879 E0.00856
G1 X71.118 Y75.222 E0.01522
G1 X71.217 Y75.476 E0.00856
G1 X71.217 Y113.247 E1.18429
G1 X71.118 Y113.502 E0.00856
G1 X70.764 Y113.855 E0.01566
G1 X70.510 Y113.955 E0.00856
G1 X64.039 Y113.955 E0.20290
G1 X63.784 Y113.855 E0.00856
G1 X63.431 Y113.502 E0.01566
G1 X63.332 Y113.247 E0.00856
G1 X63.332 Y75.476 E1.18429
G1 X63.431 Y75.222 E0.00856
G1 X63.765 Y74.888 E0.01480
G1 X64.011 Y75.175 F10800.000
G1 F1200.000
G1 X64.081 Y75.146 E0.00235
G1 X70.468 Y75.146 E0.20027
G1 X70.537 Y75.175 E0.00235
G1 X70.811 Y75.449 E0.01215
G1 X70.840 Y75.518 E0.00235
G1 X70.840 Y113.206 E1.18166
G1 X70.811 Y113.275 E0.00235
G1 X70.537 Y113.549 E0.01215
G1 X70.468 Y113.577 E0.00235
G1 X64.081 Y113.577 E0.20027
G1 X64.011 Y113.549 E0.00235
G1 X63.737 Y113.275 E0.01215
G1 X63.709 Y113.206 E0.00235
G1 X63.709 Y75.518 E1.18166
M73 P2 R42
G1 X63.737 Y75.449 E0.00235
G1 X63.969 Y75.217 E0.01027
G1 X64.196 Y75.523 F10800.000
G1 F1200.000
G1 X70.352 Y75.523 E0.19302
M73 Q2 S43
G1 X70.463 Y75.634 E0.00490
G1 X70.463 Y113.090 E1.17441
G1 X70.352 Y113.200 E0.00490
G1 X64.196 Y113.200 E0.19302
G1 X64.086 Y113.090 E0.00490
G1 X64.086 Y75.634 E1.17441
G1 X64.154 Y75.566 E0.00302
;WIPE_START
G1 F8640.000
G1 X67.445 Y75.543 E-0.76000
;WIPE_END
G1 E-0.04000 F2100.000
G1 Z0.600 F10800.000
G1 X135.692 Y105.430
G1 Z0.200
G1 E0.80000 F2100.000
G1 F1200.000
G1 X135.692 Y87.235 E0.57049
G1 X135.183 Y86.954 E0.01824
G1 X134.497 Y86.303 E0.02964
G1 X134.111 Y85.773 E0.02055
G1 X133.710 Y84.574 E0.03963
G1 X133.692 Y83.594 E0.03074
G1 X128.698 Y83.574 E0.15657
G1 X127.427 Y83.127 E0.04225
G1 X126.993 Y82.797 E0.01708
G1 X126.383 Y82.165 E0.02754
G1 X125.945 Y81.422 E0.02706
G1 X125.692 Y80.450 E0.03149
G1 X125.692 Y75.274 E0.16229
G1 X125.945 Y74.301 E0.03152
G1 X126.453 Y73.471 E0.03051
G1 X127.184 Y72.769 E0.03176
G1 X127.882 Y72.377 E0.02510
G1 X128.837 Y72.130 E0.03094
G1 X145.703 Y72.133 E0.52884
G1 X146.423 Y72.282 E0.02303
G1 X147.082 Y72.577 E0.02266
G1 X148.037 Y73.404 E0.03960
G1 X148.581 Y74.249 E0.03149
G1 X148.857 Y75.275 E0.03331
G1 X148.857 Y113.450 E1.19695
G1 X148.603 Y114.423 E0.03152
G1 X148.095 Y115.252 E0.03051
G1 X147.365 Y115.954 E0.03176
G1 X146.667 Y116.346 E0.02510
G1 X145.712 Y116.594 E0.03093
G1 X128.836 Y116.594 E0.52913
G1 X127.863 Y116.341 E0.03154
G1 X127.069 Y115.861 E0.02909
G1 X126.359 Y115.139 E0.03176
G1 X125.958 Y114.450 E0.02498
G1 X125.714 Y113.604 E0.02761
G1 X125.692 Y108.575 E0.15769
G1 X125.940 Y107.619 E0.03096
G1 X126.308 Y106.953 E0.02386
G1 X127.198 Y106.059 E0.03955
G1 X127.873 Y105.680 E0.02427
G1 X128.737 Y105.443 E0.02809
G1 X135.632 Y105.430 E0.21619
G1 X136.069 Y105.806 F10800.000
G1 F1200.000
G1 X136.069 Y87.006 E0.58946
G1 X135.423 Y86.662 E0.02296
G1 X134.770 Y86.042 E0.02824
G1 X134.434 Y85.577 E0.01798
G1 X134.078 Y84.487 E0.03597
G1 X134.068 Y83.217 E0.03979
G1 X128.790 Y83.207 E0.16546
G1 X127.630 Y82.808 E0.03849
G1 X127.253 Y82.523 E0.01481
G1 X126.695 Y81.951 E0.02506
G1 X126.302 Y81.298 E0.02390
G1 X126.069 Y80.425 E0.02833
G1 X126.069 Y75.299 E0.16071
G1 X126.302 Y74.425 E0.02835
G1 X126.733 Y73.725 E0.02579
G1 X127.392 Y73.084 E0.02883
G1 X128.003 Y72.735 E0.02206
G1 X128.862 Y72.507 E0.02785
G1 X145.684 Y72.510 E0.52745
G1 X146.288 Y72.635 E0.01932
G1 X146.902 Y72.909 E0.02110
G1 X147.767 Y73.669 E0.03609
G1 X148.247 Y74.425 E0.02809
G1 X148.479 Y75.299 E0.02835
G1 X148.479 Y113.425 E1.19540
G1 X148.247 Y114.298 E0.02835
G1 X147.815 Y114.999 E0.02579
G1 X147.156 Y115.640 E0.02883
G1 X146.545 Y115.989 E0.02206
G1 X145.687 Y116.217 E0.02785
G1 X128.862 Y116.217 E0.52755
G1 X127.988 Y115.984 E0.02835
G1 X127.288 Y115.553 E0.02579
G1 X126.647 Y114.894 E0.02883
G1 X126.298 Y114.284 E0.02203
G1 X126.083 Y113.527 E0.02466
G1 X126.069 Y108.599 E0.15450
G1 X126.298 Y107.740 E0.02788
G1 X126.624 Y107.161 E0.02084
G1 X127.408 Y106.374 E0.03485
G1 X127.996 Y106.037 E0.02125
G1 X128.812 Y105.813 E0.02653
G1 X136.009 Y105.807 E0.22565
G1 X136.446 Y106.184 F10800.000
G1 F1200.000
G1 X136.446 Y86.776 E0.60853
G1 X135.662 Y86.370 E0.02767
G1 X135.043 Y85.781 E0.02679
G1 X134.759 Y85.383 E0.01534
G1 X134.446 Y84.401 E0.03230
G1 X134.446 Y82.840 E0.04895
G1 X128.881 Y82.840 E0.17451
G1 X127.831 Y82.488 E0.03472
G1 X127.511 Y82.247 E0.01255
G1 X127.004 Y81.734 E0.02261
G1 X126.658 Y81.171 E0.02073
G1 X126.446 Y80.399 E0.02510
G1 X126.446 Y75.325 E0.15908
G1 X126.658 Y74.553 E0.02509
G1 X127.039 Y73.946 E0.02248
G1 X127.636 Y73.372 E0.02597
G1 X128.126 Y73.092 E0.01770
G1 X128.888 Y72.884 E0.02475
G1 X145.664 Y72.887 E0.52600
G1 X146.188 Y72.999 E0.01681
G1 X146.719 Y73.240 E0.01829
G1 X147.496 Y73.932 E0.03263
G1 X147.891 Y74.553 E0.02306
G1 X148.102 Y75.325 E0.02510
G1 X148.102 Y113.399 E1.19377
G1 X147.891 Y114.170 E0.02509
G1 X147.509 Y114.777 E0.02248
G1 X146.912 Y115.351 E0.02597
G1 X146.422 Y115.632 E0.01770
G1 X145.661 Y115.840 E0.02474
G1 X128.887 Y115.840 E0.52593
M73 P3 R42
G1 X128.116 Y115.628 E0.02509
G1 X127.509 Y115.247 E0.02248
G1 X126.935 Y114.650 E0.02597
G1 X126.654 Y114.159 E0.01772
G1 X126.453 Y113.449 E0.02313
G1 X126.446 Y108.625 E0.15126
M73 Q3 S43
G1 X126.654 Y107.864 E0.02473
G1 X126.938 Y107.371 E0.01784
M73 Q3 S42
G1 X127.620 Y106.686 E0.03030
G1 X128.121 Y106.394 E0.01818
G1 X128.887 Y106.184 E0.02493
G1 X136.386 Y106.184 E0.23512
G1 X136.823 Y106.561 F10800.000
G1 F1200.000
G1 X136.823 Y86.448 E0.63062
G1 X136.468 Y86.363 E0.01145
G1 X135.902 Y86.077 E0.01990
G1 X135.317 Y85.521 E0.02529
G1 X135.084 Y85.190 E0.01269
G1 X134.823 Y84.372 E0.02692
G1 X134.823 Y82.463 E0.05986
G1 X128.911 Y82.463 E0.18537
G1 X128.031 Y82.167 E0.02911
G1 X127.767 Y81.970 E0.01034
G1 X127.311 Y81.514 E0.02022
G1 X127.013 Y81.040 E0.01755
G1 X126.823 Y80.372 E0.02179
G1 X126.823 Y75.352 E0.15740
G1 X127.013 Y74.683 E0.02179
G1 X127.317 Y74.203 E0.01783
G1 X127.881 Y73.660 E0.02454
G1 X128.252 Y73.448 E0.01340
G1 X128.915 Y73.261 E0.02159
G1 X145.642 Y73.264 E0.52449
G1 X146.086 Y73.362 E0.01423
G1 X146.534 Y73.569 E0.01548
G1 X147.224 Y74.195 E0.02920
G1 X147.536 Y74.683 E0.01818
G1 X147.725 Y75.352 E0.02179
G1 X147.725 Y113.372 E1.19209
G1 X147.536 Y114.040 E0.02179
G1 X147.232 Y114.521 E0.01783
G1 X146.668 Y115.063 E0.02454
G1 X146.297 Y115.275 E0.01339
G1 X145.634 Y115.463 E0.02158
G1 X128.914 Y115.463 E0.52424
G1 X128.246 Y115.273 E0.02179
G1 X127.765 Y114.969 E0.01783
G1 X127.223 Y114.405 E0.02454
G1 X127.011 Y114.034 E0.01339
G1 X126.823 Y113.372 E0.02158
G1 X126.823 Y108.652 E0.14799
G1 X127.011 Y107.990 E0.02158
G1 X127.224 Y107.617 E0.01345
G1 X127.835 Y106.997 E0.02732
G1 X128.249 Y106.749 E0.01511
G1 X128.914 Y106.561 E0.02169
G1 X136.763 Y106.561 E0.24610
G1 X137.200 Y106.938 F10800.000
G1 F1200.000
G1 X137.200 Y86.092 E0.65360
G1 X136.937 Y86.083 E0.00827
G1 X136.610 Y86.013 E0.01048
G1 X136.140 Y85.783 E0.01641
G1 X135.592 Y85.262 E0.02371
G1 X135.411 Y84.999 E0.01000
G1 X135.200 Y84.343 E0.02162
G1 X135.200 Y82.086 E0.07076
G1 X128.942 Y82.086 E0.19622
G1 X128.231 Y81.846 E0.02354
G1 X128.023 Y81.693 E0.00808
G1 X127.592 Y81.262 E0.01911
G1 X127.366 Y80.907 E0.01318
G1 X127.200 Y80.344 E0.01842
G1 X127.200 Y75.380 E0.15564
G1 X127.366 Y74.816 E0.01842
G1 X127.594 Y74.459 E0.01328
G1 X128.125 Y73.948 E0.02311
G1 X128.380 Y73.803 E0.00919
G1 X128.942 Y73.638 E0.01838
G1 X145.620 Y73.642 E0.52291
G1 X145.980 Y73.724 E0.01157
G1 X146.345 Y73.897 E0.01268
G1 X146.950 Y74.455 E0.02580
G1 X147.182 Y74.817 E0.01347
G1 X147.348 Y75.380 E0.01841
G1 X147.348 Y113.344 E1.19033
G1 X147.182 Y113.907 E0.01842
G1 X146.955 Y114.264 E0.01328
G1 X146.423 Y114.775 E0.02311
G1 X146.169 Y114.920 E0.00919
G1 X145.606 Y115.086 E0.01838
G1 X128.942 Y115.086 E0.52248
G1 X128.379 Y114.920 E0.01842
G1 X128.022 Y114.692 E0.01328
G1 X127.511 Y114.161 E0.02311
G1 X127.366 Y113.906 E0.00919
G1 X127.200 Y113.344 E0.01838
G1 X127.200 Y108.680 E0.14623
G1 X127.366 Y108.118 E0.01838
G1 X127.511 Y107.862 E0.00921
G1 X128.054 Y107.304 E0.02442
G1 X128.381 Y107.103 E0.01204
G1 X128.942 Y106.938 E0.01834
G1 X137.140 Y106.938 E0.25704
G1 X137.577 Y107.315 F10800.000
G1 F1200.000
G1 X137.577 Y85.709 E0.67745
G1 X136.986 Y85.709 E0.01854
G1 X136.752 Y85.663 E0.00748
G1 X136.334 Y85.458 E0.01461
G1 X135.870 Y85.007 E0.02028
G1 X135.738 Y84.812 E0.00739
G1 X135.577 Y84.313 E0.01642
G1 X135.577 Y81.709 E0.08166
G1 X128.973 Y81.709 E0.20707
G1 X128.428 Y81.523 E0.01806
G1 X128.278 Y81.415 E0.00579
G1 X127.872 Y81.009 E0.01800
G1 X127.718 Y80.770 E0.00892
G1 X127.577 Y80.314 E0.01496
G1 X127.577 Y75.409 E0.15378
G1 X127.718 Y74.954 E0.01495
G1 X127.873 Y74.714 E0.00894
G1 X128.338 Y74.260 E0.02038
G1 X128.515 Y74.156 E0.00643
G1 X128.972 Y74.015 E0.01500
G1 X145.598 Y74.019 E0.52131
M73 P3 R41
G1 X145.837 Y74.074 E0.00767
G1 X146.156 Y74.225 E0.01109
G1 X146.675 Y74.713 E0.02233
G1 X146.830 Y74.954 E0.00898
G1 X146.971 Y75.409 E0.01495
G1 X146.971 Y113.314 E1.18848
G1 X146.830 Y113.770 E0.01495
G1 X146.676 Y114.010 E0.00894
G1 X146.211 Y114.463 E0.02038
G1 X146.034 Y114.568 E0.00643
G1 X145.577 Y114.709 E0.01500
